/PROG  B003.LS
/ATTR
OWNER       = MNEDITOR;
COMMENT     = "";
PROG_SIZE   = 636;
CREATE      = DATE 23-01-07  TIME 11:59:14;
MODIFIED    = DATE 23-01-07  TIME 12:02:18;
FILE_NAME   = ;
VERSION     = 0;
LINE_COUNT  = 4;
MEMORY_SIZE = 992;
PROTECT     = READ_WRITE;
TCD:  STACK_SIZE    = 0,
      TASK_PRIORITY = 50,
      TIME_SLICE    = 0,
      BUSY_LAMP_OFF = 0,
      ABORT_REQUEST = 0,
      PAUSE_REQUEST = 0;
DEFAULT_GROUP    = 1,*,*,*,*;
CONTROL_CODE     = 00000000 00000000;
/MN
   1:J P[1] 100% FINE    ;
   2:L P[2] 100mm/sec CNT100    ;
   3:L P[3] 100mm/sec CNT100    ;
   4:L P[4] 100mm/sec CNT100    ;
   5:L P[5] 100mm/sec CNT100    ;
   6:L P[6] 100mm/sec CNT100    ;
   7:L P[7] 100mm/sec CNT100    ;
   8:L P[8] 100mm/sec CNT100    ;
   9:L P[9] 100mm/sec CNT100    ;
   10:L P[10] 100mm/sec CNT100    ;
   11:L P[11] 100mm/sec CNT100    ;
   12:L P[12] 100mm/sec CNT100    ;
   13:L P[13] 100mm/sec CNT100    ;
   14:L P[14] 100mm/sec CNT100    ;
   15:L P[15] 100mm/sec CNT100    ;
   16:L P[16] 100mm/sec CNT100    ;
   17:L P[17] 100mm/sec CNT100    ;
   18:L P[18] 100mm/sec CNT100    ;
   19:L P[19] 100mm/sec CNT100    ;
   20:L P[20] 100mm/sec CNT100    ;
   21:L P[21] 100mm/sec CNT100    ;
   22:L P[22] 100mm/sec CNT100    ;
   23:L P[23] 100mm/sec CNT100    ;
   24:L P[24] 100mm/sec CNT100    ;
   25:L P[25] 100mm/sec CNT100    ;
   26:L P[26] 100mm/sec CNT100    ;
   27:L P[27] 100mm/sec CNT100    ;
   28:L P[28] 100mm/sec CNT100    ;
   29:L P[29] 100mm/sec CNT100    ;
   30:L P[30] 100mm/sec CNT100    ;
   31:L P[31] 100mm/sec CNT100    ;
   32:L P[32] 100mm/sec CNT100    ;
   33:L P[33] 100mm/sec CNT100    ;
   34:L P[34] 100mm/sec CNT100    ;
   35:L P[35] 100mm/sec CNT100    ;
   36:L P[36] 100mm/sec CNT100    ;
   37:L P[37] 100mm/sec CNT100    ;
   38:L P[38] 100mm/sec CNT100    ;
   39:L P[39] 100mm/sec CNT100    ;
   40:L P[40] 100mm/sec CNT100    ;
   41:L P[41] 100mm/sec CNT100    ;
   42:L P[42] 100mm/sec CNT100    ;
   43:L P[43] 100mm/sec CNT100    ;
   44:L P[44] 100mm/sec CNT100    ;
   45:L P[45] 100mm/sec CNT100    ;
   46:L P[46] 100mm/sec CNT100    ;
   47:L P[47] 100mm/sec CNT100    ;
   48:L P[48] 100mm/sec CNT100    ;
   49:L P[49] 100mm/sec CNT100    ;
   50:L P[50] 100mm/sec CNT100    ;
   51:L P[51] 100mm/sec CNT100    ;
   52:L P[52] 100mm/sec CNT100    ;
   53:L P[53] 100mm/sec CNT100    ;
   54:L P[54] 100mm/sec CNT100    ;
   55:L P[55] 100mm/sec CNT100    ;
   56:L P[56] 100mm/sec CNT100    ;
   57:L P[57] 100mm/sec CNT100    ;
   58:L P[58] 100mm/sec CNT100    ;
   59:L P[59] 100mm/sec CNT100    ;
   60:L P[60] 100mm/sec CNT100    ;
   61:L P[61] 100mm/sec CNT100    ;
   62:L P[62] 100mm/sec CNT100    ;
   63:L P[63] 100mm/sec CNT100    ;
   64:L P[64] 100mm/sec CNT100    ;
   65:L P[65] 100mm/sec CNT100    ;
   66:L P[66] 100mm/sec CNT100    ;
   67:L P[67] 100mm/sec CNT100    ;
   68:L P[68] 100mm/sec CNT100    ;
   69:L P[69] 100mm/sec CNT100    ;
   70:L P[70] 100mm/sec CNT100    ;
   71:L P[71] 100mm/sec CNT100    ;
   72:L P[72] 100mm/sec CNT100    ;
   73:L P[73] 100mm/sec CNT100    ;
   74:L P[74] 100mm/sec CNT100    ;
   75:L P[75] 100mm/sec CNT100    ;
   76:L P[76] 100mm/sec CNT100    ;
   77:L P[77] 100mm/sec CNT100    ;
   78:L P[78] 100mm/sec CNT100    ;
   79:L P[79] 100mm/sec CNT100    ;
   80:L P[80] 100mm/sec CNT100    ;
   81:L P[81] 100mm/sec CNT100    ;
   82:L P[82] 100mm/sec CNT100    ;
   83:L P[83] 100mm/sec CNT100    ;
   84:L P[84] 100mm/sec CNT100    ;
   85:L P[85] 100mm/sec CNT100    ;
   86:L P[86] 100mm/sec CNT100    ;
   87:L P[87] 100mm/sec CNT100    ;
   88:L P[88] 100mm/sec CNT100    ;
   89:L P[89] 100mm/sec CNT100    ;
   90:L P[90] 100mm/sec CNT100    ;
   91:L P[91] 100mm/sec CNT100    ;
   92:L P[92] 100mm/sec CNT100    ;
   93:L P[93] 100mm/sec CNT100    ;
   94:L P[94] 100mm/sec CNT100    ;
   95:L P[95] 100mm/sec CNT100    ;
   96:L P[96] 100mm/sec CNT100    ;
   97:L P[97] 100mm/sec CNT100    ;
   98:L P[98] 100mm/sec CNT100    ;
   99:L P[99] 100mm/sec CNT100    ;
   100:L P[100] 100mm/sec CNT100    ;
   101:L P[101] 100mm/sec CNT100    ;
   102:L P[102] 100mm/sec CNT100    ;
   103:L P[103] 100mm/sec CNT100    ;
   104:L P[104] 100mm/sec CNT100    ;
   105:L P[105] 100mm/sec CNT100    ;
   106:L P[106] 100mm/sec CNT100    ;
   107:L P[107] 100mm/sec CNT100    ;
   108:L P[108] 100mm/sec CNT100    ;
   109:L P[109] 100mm/sec CNT100    ;
   110:L P[110] 100mm/sec CNT100    ;
   111:L P[111] 100mm/sec CNT100    ;
   112:L P[112] 100mm/sec CNT100    ;
   113:L P[113] 100mm/sec CNT100    ;
   114:L P[114] 100mm/sec CNT100    ;
   115:L P[115] 100mm/sec CNT100    ;
   116:L P[116] 100mm/sec CNT100    ;
   117:L P[117] 100mm/sec CNT100    ;
   118:L P[118] 100mm/sec CNT100    ;
   119:L P[119] 100mm/sec CNT100    ;
   120:L P[120] 100mm/sec CNT100    ;
   121:L P[121] 100mm/sec CNT100    ;
   122:L P[122] 100mm/sec CNT100    ;
   123:L P[123] 100mm/sec CNT100    ;
   124:L P[124] 100mm/sec CNT100    ;
   125:L P[125] 100mm/sec CNT100    ;
   126:L P[126] 100mm/sec CNT100    ;
   127:L P[127] 100mm/sec CNT100    ;
   128:L P[128] 100mm/sec CNT100    ;
   129:L P[129] 100mm/sec CNT100    ;
   130:L P[130] 100mm/sec CNT100    ;
   131:L P[131] 100mm/sec CNT100    ;
   132:L P[132] 100mm/sec CNT100    ;
   133:L P[133] 100mm/sec CNT100    ;
   134:L P[134] 100mm/sec CNT100    ;
   135:L P[135] 100mm/sec CNT100    ;
   136:L P[136] 100mm/sec CNT100    ;
   137:L P[137] 100mm/sec CNT100    ;
   138:L P[138] 100mm/sec CNT100    ;
   139:L P[139] 100mm/sec CNT100    ;
   140:L P[140] 100mm/sec CNT100    ;
   141:L P[141] 100mm/sec CNT100    ;
   142:L P[142] 100mm/sec CNT100    ;
   143:L P[143] 100mm/sec CNT100    ;
   144:L P[144] 100mm/sec CNT100    ;
   145:L P[145] 100mm/sec CNT100    ;
   146:L P[146] 100mm/sec CNT100    ;
   147:L P[147] 100mm/sec CNT100    ;
   148:L P[148] 100mm/sec CNT100    ;
   149:L P[149] 100mm/sec CNT100    ;
   150:L P[150] 100mm/sec CNT100    ;
   151:L P[151] 100mm/sec CNT100    ;
   152:L P[152] 100mm/sec CNT100    ;
   153:L P[153] 100mm/sec CNT100    ;
   154:L P[154] 100mm/sec CNT100    ;
   155:L P[155] 100mm/sec CNT100    ;
   156:L P[156] 100mm/sec CNT100    ;
   157:L P[157] 100mm/sec CNT100    ;
   158:L P[158] 100mm/sec CNT100    ;
   159:L P[159] 100mm/sec CNT100    ;
   160:L P[160] 100mm/sec CNT100    ;
   161:L P[161] 100mm/sec CNT100    ;
   162:L P[162] 100mm/sec CNT100    ;
   163:L P[163] 100mm/sec CNT100    ;
   164:L P[164] 100mm/sec CNT100    ;
   165:L P[165] 100mm/sec CNT100    ;
   166:L P[166] 100mm/sec CNT100    ;
   167:L P[167] 100mm/sec CNT100    ;
   168:L P[168] 100mm/sec CNT100    ;
   169:L P[169] 100mm/sec CNT100    ;
   170:L P[170] 100mm/sec CNT100    ;
   171:L P[171] 100mm/sec CNT100    ;
   172:L P[172] 100mm/sec CNT100    ;
   173:L P[173] 100mm/sec CNT100    ;
   174:L P[174] 100mm/sec CNT100    ;
   175:L P[175] 100mm/sec CNT100    ;
   176:L P[176] 100mm/sec CNT100    ;
   177:L P[177] 100mm/sec CNT100    ;
   178:L P[178] 100mm/sec CNT100    ;
   179:L P[179] 100mm/sec CNT100    ;
   180:L P[180] 100mm/sec CNT100    ;
   181:L P[181] 100mm/sec CNT100    ;
   182:L P[182] 100mm/sec CNT100    ;
   183:L P[183] 100mm/sec CNT100    ;
   184:L P[184] 100mm/sec CNT100    ;
   185:L P[185] 100mm/sec CNT100    ;
   186:L P[186] 100mm/sec CNT100    ;
   187:L P[187] 100mm/sec CNT100    ;
   188:L P[188] 100mm/sec CNT100    ;
   189:L P[189] 100mm/sec CNT100    ;
   190:L P[190] 100mm/sec CNT100    ;
   191:L P[191] 100mm/sec CNT100    ;
   192:L P[192] 100mm/sec CNT100    ;
   193:L P[193] 100mm/sec CNT100    ;
   194:L P[194] 100mm/sec CNT100    ;
   195:L P[195] 100mm/sec CNT100    ;
   196:L P[196] 100mm/sec CNT100    ;
   197:L P[197] 100mm/sec CNT100    ;
   198:L P[198] 100mm/sec CNT100    ;
   199:L P[199] 100mm/sec CNT100    ;
   200:L P[200] 100mm/sec CNT100    ;
   201:L P[201] 100mm/sec CNT100    ;
   202:L P[202] 100mm/sec CNT100    ;
   203:L P[203] 100mm/sec CNT100    ;
   204:L P[204] 100mm/sec CNT100    ;
   205:L P[205] 100mm/sec CNT100    ;
   206:L P[206] 100mm/sec CNT100    ;
   207:L P[207] 100mm/sec CNT100    ;
   208:L P[208] 100mm/sec CNT100    ;
   209:L P[209] 100mm/sec CNT100    ;
   210:L P[210] 100mm/sec CNT100    ;
   211:L P[211] 100mm/sec CNT100    ;
   212:L P[212] 100mm/sec CNT100    ;
   213:L P[213] 100mm/sec CNT100    ;
   214:L P[214] 100mm/sec CNT100    ;
   215:L P[215] 100mm/sec CNT100    ;
   216:L P[216] 100mm/sec CNT100    ;
   217:L P[217] 100mm/sec CNT100    ;
   218:L P[218] 100mm/sec CNT100    ;
   219:L P[219] 100mm/sec CNT100    ;
   220:L P[220] 100mm/sec CNT100    ;
   221:L P[221] 100mm/sec CNT100    ;
   222:L P[222] 100mm/sec CNT100    ;
   223:L P[223] 100mm/sec CNT100    ;
   224:L P[224] 100mm/sec CNT100    ;
   225:L P[225] 100mm/sec CNT100    ;
   226:L P[226] 100mm/sec CNT100    ;
   227:L P[227] 100mm/sec CNT100    ;
   228:L P[228] 100mm/sec CNT100    ;
   229:L P[229] 100mm/sec CNT100    ;
   230:L P[230] 100mm/sec CNT100    ;
   231:L P[231] 100mm/sec CNT100    ;
   232:L P[232] 100mm/sec CNT100    ;
   233:L P[233] 100mm/sec CNT100    ;
   234:L P[234] 100mm/sec CNT100    ;
   235:L P[235] 100mm/sec CNT100    ;
   236:L P[236] 100mm/sec CNT100    ;
   237:L P[237] 100mm/sec CNT100    ;
   238:L P[238] 100mm/sec CNT100    ;
<<<<<<< HEAD
   239:L P[239] 100mm/sec CNT100    ;
   240:L P[240] 100mm/sec CNT100    ;
   241:L P[241] 100mm/sec CNT100    ;
   242:L P[242] 100mm/sec CNT100    ;
   243:L P[243] 100mm/sec CNT100    ;
   244:L P[244] 100mm/sec CNT100    ;
   245:L P[245] 100mm/sec CNT100    ;
   246:L P[246] 100mm/sec CNT100    ;
   247:L P[247] 100mm/sec CNT100    ;
   248:L P[248] 100mm/sec CNT100    ;
   249:L P[249] 100mm/sec CNT100    ;
   250:L P[250] 100mm/sec CNT100    ;
   251:L P[251] 100mm/sec CNT100    ;
   252:L P[252] 100mm/sec CNT100    ;
   253:L P[253] 100mm/sec CNT100    ;
   254:L P[254] 100mm/sec CNT100    ;
   255:L P[255] 100mm/sec CNT100    ;
   256:L P[256] 100mm/sec CNT100    ;
   257:L P[257] 100mm/sec CNT100    ;
   258:L P[258] 100mm/sec CNT100    ;
   259:L P[259] 100mm/sec CNT100    ;
   260:L P[260] 100mm/sec CNT100    ;
   261:L P[261] 100mm/sec CNT100    ;
   262:L P[262] 100mm/sec CNT100    ;
   263:L P[263] 100mm/sec CNT100    ;
   264:L P[264] 100mm/sec CNT100    ;
   265:L P[265] 100mm/sec CNT100    ;
   266:L P[266] 100mm/sec CNT100    ;
   267:L P[267] 100mm/sec CNT100    ;
   268:L P[268] 100mm/sec CNT100    ;
   269:L P[269] 100mm/sec CNT100    ;
   270:L P[270] 100mm/sec CNT100    ;
   271:L P[271] 100mm/sec CNT100    ;
   272:L P[272] 100mm/sec CNT100    ;
   273:L P[273] 100mm/sec CNT100    ;
   274:L P[274] 100mm/sec CNT100    ;
   275:L P[275] 100mm/sec CNT100    ;
   276:L P[276] 100mm/sec CNT100    ;
   277:L P[277] 100mm/sec CNT100    ;
=======
>>>>>>> 57c9ae60f3459af8128fdcb2050aaf603a61aea9
/POS
P[1]{
   GP1:
    UF : 0, UT : 6,      CONFIG : 'N U T, 0, 0, 0',
<<<<<<< HEAD
    X =  313.727  mm,    Y =   8.575  mm,    Z =   -254.843  mm,
=======
    X =  420.000  mm,    Y =   0.000  mm,    Z =   -17.827  mm,
>>>>>>> 57c9ae60f3459af8128fdcb2050aaf603a61aea9
    W =  -180.000 deg,    P =   0.000 deg,    R =   0.000 deg
};
P[2]{
   GP1:
    UF : 0, UT : 6,      CONFIG : 'N U T, 0, 0, 0',
<<<<<<< HEAD
    X =  390.198  mm,    Y =   49.644  mm,    Z =   183.172  mm,
=======
    X =  465.061  mm,    Y =   185.420  mm,    Z =   -243.572  mm,
>>>>>>> 57c9ae60f3459af8128fdcb2050aaf603a61aea9
    W =  -180.000 deg,    P =   0.000 deg,    R =   0.000 deg
};
P[3]{
   GP1:
    UF : 0, UT : 6,      CONFIG : 'N U T, 0, 0, 0',
<<<<<<< HEAD
    X =  438.298  mm,    Y =   42.767  mm,    Z =   -67.899  mm,
    W =  -190.286 deg,    P =   0.000 deg,    R =   0.000 deg
=======
    X =  464.965  mm,    Y =   100.291  mm,    Z =   -243.572  mm,
    W =  -180.000 deg,    P =   0.000 deg,    R =   0.000 deg
>>>>>>> 57c9ae60f3459af8128fdcb2050aaf603a61aea9
};
P[4]{
   GP1:
    UF : 0, UT : 6,      CONFIG : 'N U T, 0, 0, 0',
<<<<<<< HEAD
    X =  437.857  mm,    Y =   43.414  mm,    Z =   -81.283  mm,
    W =  -190.167 deg,    P =   0.000 deg,    R =   0.000 deg
=======
    X =  464.878  mm,    Y =   95.193  mm,    Z =   -242.546  mm,
    W =  -180.000 deg,    P =   0.000 deg,    R =   0.000 deg
>>>>>>> 57c9ae60f3459af8128fdcb2050aaf603a61aea9
};
P[5]{
   GP1:
    UF : 0, UT : 6,      CONFIG : 'N U T, 0, 0, 0',
<<<<<<< HEAD
    X =  436.747  mm,    Y =   42.839  mm,    Z =   -87.301  mm,
    W =  -190.220 deg,    P =   0.000 deg,    R =   0.000 deg
=======
    X =  464.987  mm,    Y =   90.024  mm,    Z =   -241.741  mm,
    W =  -180.000 deg,    P =   0.000 deg,    R =   0.000 deg
>>>>>>> 57c9ae60f3459af8128fdcb2050aaf603a61aea9
};
P[6]{
   GP1:
    UF : 0, UT : 6,      CONFIG : 'N U T, 0, 0, 0',
<<<<<<< HEAD
    X =  437.016  mm,    Y =   43.252  mm,    Z =   -97.914  mm,
    W =  -190.261 deg,    P =   0.000 deg,    R =   0.000 deg
=======
    X =  465.028  mm,    Y =   85.257  mm,    Z =   -242.086  mm,
    W =  -180.000 deg,    P =   0.000 deg,    R =   0.000 deg
>>>>>>> 57c9ae60f3459af8128fdcb2050aaf603a61aea9
};
P[7]{
   GP1:
    UF : 0, UT : 6,      CONFIG : 'N U T, 0, 0, 0',
<<<<<<< HEAD
    X =  436.301  mm,    Y =   42.897  mm,    Z =   -112.659  mm,
    W =  -190.307 deg,    P =   0.000 deg,    R =   0.000 deg
=======
    X =  465.043  mm,    Y =   80.133  mm,    Z =   -243.026  mm,
    W =  -180.000 deg,    P =   0.000 deg,    R =   0.000 deg
>>>>>>> 57c9ae60f3459af8128fdcb2050aaf603a61aea9
};
P[8]{
   GP1:
    UF : 0, UT : 6,      CONFIG : 'N U T, 0, 0, 0',
<<<<<<< HEAD
    X =  436.100  mm,    Y =   42.358  mm,    Z =   -124.640  mm,
    W =  -190.230 deg,    P =   0.000 deg,    R =   0.000 deg
=======
    X =  464.801  mm,    Y =   75.243  mm,    Z =   -243.435  mm,
    W =  -180.000 deg,    P =   0.000 deg,    R =   0.000 deg
>>>>>>> 57c9ae60f3459af8128fdcb2050aaf603a61aea9
};
P[9]{
   GP1:
    UF : 0, UT : 6,      CONFIG : 'N U T, 0, 0, 0',
<<<<<<< HEAD
    X =  436.019  mm,    Y =   42.722  mm,    Z =   -138.537  mm,
    W =  -190.139 deg,    P =   0.000 deg,    R =   0.000 deg
=======
    X =  464.974  mm,    Y =   70.492  mm,    Z =   -242.363  mm,
    W =  -180.000 deg,    P =   0.000 deg,    R =   0.000 deg
>>>>>>> 57c9ae60f3459af8128fdcb2050aaf603a61aea9
};
P[10]{
   GP1:
    UF : 0, UT : 6,      CONFIG : 'N U T, 0, 0, 0',
<<<<<<< HEAD
    X =  448.820  mm,    Y =   34.814  mm,    Z =   -803.032  mm,
=======
    X =  464.875  mm,    Y =   65.431  mm,    Z =   -241.632  mm,
>>>>>>> 57c9ae60f3459af8128fdcb2050aaf603a61aea9
    W =  -180.000 deg,    P =   0.000 deg,    R =   0.000 deg
};
P[11]{
   GP1:
    UF : 0, UT : 6,      CONFIG : 'N U T, 0, 0, 0',
<<<<<<< HEAD
    X =  460.896  mm,    Y =   20.191  mm,    Z =   -790.849  mm,
=======
    X =  464.981  mm,    Y =   60.256  mm,    Z =   -241.258  mm,
>>>>>>> 57c9ae60f3459af8128fdcb2050aaf603a61aea9
    W =  -180.000 deg,    P =   0.000 deg,    R =   0.000 deg
};
P[12]{
   GP1:
    UF : 0, UT : 6,      CONFIG : 'N U T, 0, 0, 0',
<<<<<<< HEAD
    X =  445.941  mm,    Y =   21.943  mm,    Z =   -571.367  mm,
    W =  -185.856 deg,    P =   0.000 deg,    R =   0.000 deg
=======
    X =  464.789  mm,    Y =   55.324  mm,    Z =   -240.905  mm,
    W =  -180.000 deg,    P =   0.000 deg,    R =   0.000 deg
>>>>>>> 57c9ae60f3459af8128fdcb2050aaf603a61aea9
};
P[13]{
   GP1:
    UF : 0, UT : 6,      CONFIG : 'N U T, 0, 0, 0',
<<<<<<< HEAD
    X =  445.034  mm,    Y =   22.502  mm,    Z =   -557.580  mm,
    W =  -185.962 deg,    P =   0.000 deg,    R =   0.000 deg
=======
    X =  465.039  mm,    Y =   50.152  mm,    Z =   -241.047  mm,
    W =  -180.000 deg,    P =   0.000 deg,    R =   0.000 deg
>>>>>>> 57c9ae60f3459af8128fdcb2050aaf603a61aea9
};
P[14]{
   GP1:
    UF : 0, UT : 6,      CONFIG : 'N U T, 0, 0, 0',
<<<<<<< HEAD
    X =  444.151  mm,    Y =   22.795  mm,    Z =   -546.578  mm,
    W =  -186.047 deg,    P =   0.000 deg,    R =   0.000 deg
=======
    X =  465.061  mm,    Y =   45.289  mm,    Z =   -242.062  mm,
    W =  -180.000 deg,    P =   0.000 deg,    R =   0.000 deg
>>>>>>> 57c9ae60f3459af8128fdcb2050aaf603a61aea9
};
P[15]{
   GP1:
    UF : 0, UT : 6,      CONFIG : 'N U T, 0, 0, 0',
<<<<<<< HEAD
    X =  443.060  mm,    Y =   22.615  mm,    Z =   -539.514  mm,
    W =  -186.256 deg,    P =   0.000 deg,    R =   0.000 deg
=======
    X =  465.061  mm,    Y =   -185.420  mm,    Z =   -242.062  mm,
    W =  -180.000 deg,    P =   0.000 deg,    R =   0.000 deg
>>>>>>> 57c9ae60f3459af8128fdcb2050aaf603a61aea9
};
P[16]{
   GP1:
    UF : 0, UT : 6,      CONFIG : 'N U T, 0, 0, 0',
<<<<<<< HEAD
    X =  442.316  mm,    Y =   23.094  mm,    Z =   -528.996  mm,
    W =  -186.600 deg,    P =   0.000 deg,    R =   0.000 deg
=======
    X =  450.041  mm,    Y =   -185.420  mm,    Z =   -244.416  mm,
    W =  -180.000 deg,    P =   0.000 deg,    R =   0.000 deg
>>>>>>> 57c9ae60f3459af8128fdcb2050aaf603a61aea9
};
P[17]{
   GP1:
    UF : 0, UT : 6,      CONFIG : 'N U T, 0, 0, 0',
<<<<<<< HEAD
    X =  441.762  mm,    Y =   23.148  mm,    Z =   -518.957  mm,
    W =  -186.799 deg,    P =   0.000 deg,    R =   0.000 deg
=======
    X =  450.315  mm,    Y =   5.354  mm,    Z =   -244.416  mm,
    W =  -180.000 deg,    P =   0.000 deg,    R =   0.000 deg
>>>>>>> 57c9ae60f3459af8128fdcb2050aaf603a61aea9
};
P[18]{
   GP1:
    UF : 0, UT : 6,      CONFIG : 'N U T, 0, 0, 0',
<<<<<<< HEAD
    X =  441.963  mm,    Y =   22.809  mm,    Z =   -511.889  mm,
    W =  -186.940 deg,    P =   0.000 deg,    R =   0.000 deg
=======
    X =  449.938  mm,    Y =   10.208  mm,    Z =   -246.169  mm,
    W =  -180.000 deg,    P =   0.000 deg,    R =   0.000 deg
>>>>>>> 57c9ae60f3459af8128fdcb2050aaf603a61aea9
};
P[19]{
   GP1:
    UF : 0, UT : 6,      CONFIG : 'N U T, 0, 0, 0',
<<<<<<< HEAD
    X =  441.827  mm,    Y =   23.104  mm,    Z =   -497.866  mm,
    W =  -186.808 deg,    P =   0.000 deg,    R =   0.000 deg
=======
    X =  451.274  mm,    Y =   16.609  mm,    Z =   -249.651  mm,
    W =  -180.000 deg,    P =   0.000 deg,    R =   0.000 deg
>>>>>>> 57c9ae60f3459af8128fdcb2050aaf603a61aea9
};
P[20]{
   GP1:
    UF : 0, UT : 6,      CONFIG : 'N U T, 0, 0, 0',
<<<<<<< HEAD
    X =  442.005  mm,    Y =   23.130  mm,    Z =   -484.489  mm,
    W =  -186.674 deg,    P =   0.000 deg,    R =   0.000 deg
=======
    X =  450.711  mm,    Y =   19.594  mm,    Z =   -250.210  mm,
    W =  -180.000 deg,    P =   0.000 deg,    R =   0.000 deg
>>>>>>> 57c9ae60f3459af8128fdcb2050aaf603a61aea9
};
P[21]{
   GP1:
    UF : 0, UT : 6,      CONFIG : 'N U T, 0, 0, 0',
<<<<<<< HEAD
    X =  441.844  mm,    Y =   23.611  mm,    Z =   -470.126  mm,
    W =  -186.822 deg,    P =   0.000 deg,    R =   0.000 deg
=======
    X =  449.980  mm,    Y =   24.985  mm,    Z =   -248.365  mm,
    W =  -180.000 deg,    P =   0.000 deg,    R =   0.000 deg
>>>>>>> 57c9ae60f3459af8128fdcb2050aaf603a61aea9
};
P[22]{
   GP1:
    UF : 0, UT : 6,      CONFIG : 'N U T, 0, 0, 0',
<<<<<<< HEAD
    X =  441.046  mm,    Y =   23.488  mm,    Z =   -456.390  mm,
    W =  -187.027 deg,    P =   0.000 deg,    R =   0.000 deg
=======
    X =  450.959  mm,    Y =   31.711  mm,    Z =   -244.538  mm,
    W =  -180.000 deg,    P =   0.000 deg,    R =   0.000 deg
>>>>>>> 57c9ae60f3459af8128fdcb2050aaf603a61aea9
};
P[23]{
   GP1:
    UF : 0, UT : 6,      CONFIG : 'N U T, 0, 0, 0',
<<<<<<< HEAD
    X =  440.994  mm,    Y =   23.854  mm,    Z =   -441.771  mm,
    W =  -187.342 deg,    P =   0.000 deg,    R =   0.000 deg
=======
    X =  449.854  mm,    Y =   35.434  mm,    Z =   -242.882  mm,
    W =  -180.000 deg,    P =   0.000 deg,    R =   0.000 deg
>>>>>>> 57c9ae60f3459af8128fdcb2050aaf603a61aea9
};
P[24]{
   GP1:
    UF : 0, UT : 6,      CONFIG : 'N U T, 0, 0, 0',
<<<<<<< HEAD
    X =  434.951  mm,    Y =   25.716  mm,    Z =   -266.853  mm,
    W =  -189.329 deg,    P =   0.000 deg,    R =   0.000 deg
=======
    X =  449.958  mm,    Y =   40.007  mm,    Z =   -241.425  mm,
    W =  -180.000 deg,    P =   0.000 deg,    R =   0.000 deg
>>>>>>> 57c9ae60f3459af8128fdcb2050aaf603a61aea9
};
P[25]{
   GP1:
    UF : 0, UT : 6,      CONFIG : 'N U T, 0, 0, 0',
<<<<<<< HEAD
    X =  435.373  mm,    Y =   26.701  mm,    Z =   -251.658  mm,
    W =  -189.437 deg,    P =   0.000 deg,    R =   0.000 deg
=======
    X =  450.025  mm,    Y =   45.274  mm,    Z =   -240.504  mm,
    W =  -180.000 deg,    P =   0.000 deg,    R =   0.000 deg
>>>>>>> 57c9ae60f3459af8128fdcb2050aaf603a61aea9
};
P[26]{
   GP1:
    UF : 0, UT : 6,      CONFIG : 'N U T, 0, 0, 0',
<<<<<<< HEAD
    X =  434.796  mm,    Y =   26.643  mm,    Z =   -238.371  mm,
    W =  -189.507 deg,    P =   0.000 deg,    R =   0.000 deg
=======
    X =  450.407  mm,    Y =   50.112  mm,    Z =   -239.734  mm,
    W =  -180.000 deg,    P =   0.000 deg,    R =   0.000 deg
>>>>>>> 57c9ae60f3459af8128fdcb2050aaf603a61aea9
};
P[27]{
   GP1:
    UF : 0, UT : 6,      CONFIG : 'N U T, 0, 0, 0',
<<<<<<< HEAD
    X =  433.956  mm,    Y =   26.494  mm,    Z =   -223.846  mm,
    W =  -189.572 deg,    P =   0.000 deg,    R =   0.000 deg
=======
    X =  450.988  mm,    Y =   55.364  mm,    Z =   -239.580  mm,
    W =  -180.000 deg,    P =   0.000 deg,    R =   0.000 deg
>>>>>>> 57c9ae60f3459af8128fdcb2050aaf603a61aea9
};
P[28]{
   GP1:
    UF : 0, UT : 6,      CONFIG : 'N U T, 0, 0, 0',
<<<<<<< HEAD
    X =  434.016  mm,    Y =   27.071  mm,    Z =   -209.309  mm,
    W =  -189.621 deg,    P =   0.000 deg,    R =   0.000 deg
=======
    X =  452.037  mm,    Y =   59.491  mm,    Z =   -239.559  mm,
    W =  -180.000 deg,    P =   0.000 deg,    R =   0.000 deg
>>>>>>> 57c9ae60f3459af8128fdcb2050aaf603a61aea9
};
P[29]{
   GP1:
    UF : 0, UT : 6,      CONFIG : 'N U T, 0, 0, 0',
<<<<<<< HEAD
    X =  434.007  mm,    Y =   26.869  mm,    Z =   -194.697  mm,
    W =  -189.684 deg,    P =   0.000 deg,    R =   0.000 deg
=======
    X =  449.893  mm,    Y =   65.326  mm,    Z =   -240.951  mm,
    W =  -180.000 deg,    P =   0.000 deg,    R =   0.000 deg
>>>>>>> 57c9ae60f3459af8128fdcb2050aaf603a61aea9
};
P[30]{
   GP1:
    UF : 0, UT : 6,      CONFIG : 'N U T, 0, 0, 0',
<<<<<<< HEAD
    X =  434.283  mm,    Y =   27.125  mm,    Z =   -182.753  mm,
    W =  -189.760 deg,    P =   0.000 deg,    R =   0.000 deg
=======
    X =  449.856  mm,    Y =   70.227  mm,    Z =   -242.007  mm,
    W =  -180.000 deg,    P =   0.000 deg,    R =   0.000 deg
>>>>>>> 57c9ae60f3459af8128fdcb2050aaf603a61aea9
};
P[31]{
   GP1:
    UF : 0, UT : 6,      CONFIG : 'N U T, 0, 0, 0',
<<<<<<< HEAD
    X =  434.047  mm,    Y =   27.199  mm,    Z =   -172.391  mm,
    W =  -189.819 deg,    P =   0.000 deg,    R =   0.000 deg
=======
    X =  450.190  mm,    Y =   75.306  mm,    Z =   -242.945  mm,
    W =  -180.000 deg,    P =   0.000 deg,    R =   0.000 deg
>>>>>>> 57c9ae60f3459af8128fdcb2050aaf603a61aea9
};
P[32]{
   GP1:
    UF : 0, UT : 6,      CONFIG : 'N U T, 0, 0, 0',
<<<<<<< HEAD
    X =  434.661  mm,    Y =   27.441  mm,    Z =   -166.084  mm,
    W =  -189.867 deg,    P =   0.000 deg,    R =   0.000 deg
=======
    X =  449.930  mm,    Y =   80.254  mm,    Z =   -242.532  mm,
    W =  -180.000 deg,    P =   0.000 deg,    R =   0.000 deg
>>>>>>> 57c9ae60f3459af8128fdcb2050aaf603a61aea9
};
P[33]{
   GP1:
    UF : 0, UT : 6,      CONFIG : 'N U T, 0, 0, 0',
<<<<<<< HEAD
    X =  434.495  mm,    Y =   27.347  mm,    Z =   -154.664  mm,
    W =  -189.935 deg,    P =   0.000 deg,    R =   0.000 deg
=======
    X =  449.891  mm,    Y =   85.420  mm,    Z =   -241.264  mm,
    W =  -180.000 deg,    P =   0.000 deg,    R =   0.000 deg
>>>>>>> 57c9ae60f3459af8128fdcb2050aaf603a61aea9
};
P[34]{
   GP1:
    UF : 0, UT : 6,      CONFIG : 'N U T, 0, 0, 0',
<<<<<<< HEAD
    X =  433.815  mm,    Y =   27.384  mm,    Z =   -139.348  mm,
    W =  -189.995 deg,    P =   0.000 deg,    R =   0.000 deg
=======
    X =  449.946  mm,    Y =   90.486  mm,    Z =   -240.542  mm,
    W =  -180.000 deg,    P =   0.000 deg,    R =   0.000 deg
>>>>>>> 57c9ae60f3459af8128fdcb2050aaf603a61aea9
};
P[35]{
   GP1:
    UF : 0, UT : 6,      CONFIG : 'N U T, 0, 0, 0',
<<<<<<< HEAD
    X =  433.114  mm,    Y =   27.891  mm,    Z =   -125.447  mm,
    W =  -190.045 deg,    P =   0.000 deg,    R =   0.000 deg
=======
    X =  450.032  mm,    Y =   95.353  mm,    Z =   -240.730  mm,
    W =  -180.000 deg,    P =   0.000 deg,    R =   0.000 deg
>>>>>>> 57c9ae60f3459af8128fdcb2050aaf603a61aea9
};
P[36]{
   GP1:
    UF : 0, UT : 6,      CONFIG : 'N U T, 0, 0, 0',
<<<<<<< HEAD
    X =  432.507  mm,    Y =   28.280  mm,    Z =   -111.540  mm,
    W =  -190.071 deg,    P =   0.000 deg,    R =   0.000 deg
=======
    X =  450.050  mm,    Y =   100.087  mm,    Z =   -241.410  mm,
    W =  -180.000 deg,    P =   0.000 deg,    R =   0.000 deg
>>>>>>> 57c9ae60f3459af8128fdcb2050aaf603a61aea9
};
P[37]{
   GP1:
    UF : 0, UT : 6,      CONFIG : 'N U T, 0, 0, 0',
<<<<<<< HEAD
    X =  432.369  mm,    Y =   28.193  mm,    Z =   -95.888  mm,
    W =  -190.136 deg,    P =   0.000 deg,    R =   0.000 deg
=======
    X =  449.722  mm,    Y =   106.723  mm,    Z =   -243.323  mm,
    W =  -180.000 deg,    P =   0.000 deg,    R =   0.000 deg
>>>>>>> 57c9ae60f3459af8128fdcb2050aaf603a61aea9
};
P[38]{
   GP1:
    UF : 0, UT : 6,      CONFIG : 'N U T, 0, 0, 0',
<<<<<<< HEAD
    X =  432.429  mm,    Y =   28.326  mm,    Z =   -80.504  mm,
    W =  -190.177 deg,    P =   0.000 deg,    R =   0.000 deg
=======
    X =  450.224  mm,    Y =   110.817  mm,    Z =   -244.955  mm,
    W =  -180.000 deg,    P =   0.000 deg,    R =   0.000 deg
>>>>>>> 57c9ae60f3459af8128fdcb2050aaf603a61aea9
};
P[39]{
   GP1:
    UF : 0, UT : 6,      CONFIG : 'N U T, 0, 0, 0',
<<<<<<< HEAD
    X =  433.110  mm,    Y =   28.723  mm,    Z =   -66.465  mm,
    W =  -190.200 deg,    P =   0.000 deg,    R =   0.000 deg
=======
    X =  450.023  mm,    Y =   115.175  mm,    Z =   -246.078  mm,
    W =  -180.000 deg,    P =   0.000 deg,    R =   0.000 deg
>>>>>>> 57c9ae60f3459af8128fdcb2050aaf603a61aea9
};
P[40]{
   GP1:
    UF : 0, UT : 6,      CONFIG : 'N U T, 0, 0, 0',
<<<<<<< HEAD
    X =  433.653  mm,    Y =   28.667  mm,    Z =   -53.507  mm,
    W =  -190.177 deg,    P =   0.000 deg,    R =   0.000 deg
=======
    X =  449.822  mm,    Y =   120.099  mm,    Z =   -247.482  mm,
    W =  -180.000 deg,    P =   0.000 deg,    R =   0.000 deg
>>>>>>> 57c9ae60f3459af8128fdcb2050aaf603a61aea9
};
P[41]{
   GP1:
    UF : 0, UT : 6,      CONFIG : 'N U T, 0, 0, 0',
<<<<<<< HEAD
    X =  433.356  mm,    Y =   28.321  mm,    Z =   -38.508  mm,
    W =  -190.244 deg,    P =   0.000 deg,    R =   0.000 deg
=======
    X =  450.041  mm,    Y =   185.420  mm,    Z =   -247.482  mm,
    W =  -180.000 deg,    P =   0.000 deg,    R =   0.000 deg
>>>>>>> 57c9ae60f3459af8128fdcb2050aaf603a61aea9
};
P[42]{
   GP1:
    UF : 0, UT : 6,      CONFIG : 'N U T, 0, 0, 0',
<<<<<<< HEAD
    X =  432.965  mm,    Y =   28.938  mm,    Z =   -24.436  mm,
    W =  -190.394 deg,    P =   0.000 deg,    R =   0.000 deg
=======
    X =  435.020  mm,    Y =   185.420  mm,    Z =   -246.757  mm,
    W =  -180.000 deg,    P =   0.000 deg,    R =   0.000 deg
>>>>>>> 57c9ae60f3459af8128fdcb2050aaf603a61aea9
};
P[43]{
   GP1:
    UF : 0, UT : 6,      CONFIG : 'N U T, 0, 0, 0',
<<<<<<< HEAD
    X =  433.039  mm,    Y =   29.390  mm,    Z =   -10.542  mm,
    W =  -190.202 deg,    P =   0.000 deg,    R =   0.000 deg
=======
    X =  434.885  mm,    Y =   125.420  mm,    Z =   -246.757  mm,
    W =  -180.000 deg,    P =   0.000 deg,    R =   0.000 deg
>>>>>>> 57c9ae60f3459af8128fdcb2050aaf603a61aea9
};
P[44]{
   GP1:
    UF : 0, UT : 6,      CONFIG : 'N U T, 0, 0, 0',
<<<<<<< HEAD
    X =  433.843  mm,    Y =   31.306  mm,    Z =   -1.856  mm,
    W =  -189.998 deg,    P =   0.000 deg,    R =   0.000 deg
=======
    X =  434.637  mm,    Y =   120.172  mm,    Z =   -245.908  mm,
    W =  -180.000 deg,    P =   0.000 deg,    R =   0.000 deg
>>>>>>> 57c9ae60f3459af8128fdcb2050aaf603a61aea9
};
P[45]{
   GP1:
    UF : 0, UT : 6,      CONFIG : 'N U T, 0, 0, 0',
<<<<<<< HEAD
    X =  434.187  mm,    Y =   28.948  mm,    Z =   5.240  mm,
    W =  -190.309 deg,    P =   0.000 deg,    R =   0.000 deg
=======
    X =  435.411  mm,    Y =   115.607  mm,    Z =   -244.530  mm,
    W =  -180.000 deg,    P =   0.000 deg,    R =   0.000 deg
>>>>>>> 57c9ae60f3459af8128fdcb2050aaf603a61aea9
};
P[46]{
   GP1:
    UF : 0, UT : 6,      CONFIG : 'N U T, 0, 0, 0',
<<<<<<< HEAD
    X =  422.035  mm,    Y =   33.598  mm,    Z =   192.776  mm,
=======
    X =  435.059  mm,    Y =   110.081  mm,    Z =   -241.861  mm,
>>>>>>> 57c9ae60f3459af8128fdcb2050aaf603a61aea9
    W =  -180.000 deg,    P =   0.000 deg,    R =   0.000 deg
};
P[47]{
   GP1:
    UF : 0, UT : 6,      CONFIG : 'N U T, 0, 0, 0',
<<<<<<< HEAD
    X =  397.259  mm,    Y =   21.626  mm,    Z =   209.770  mm,
=======
    X =  434.831  mm,    Y =   105.203  mm,    Z =   -240.176  mm,
>>>>>>> 57c9ae60f3459af8128fdcb2050aaf603a61aea9
    W =  -180.000 deg,    P =   0.000 deg,    R =   0.000 deg
};
P[48]{
   GP1:
    UF : 0, UT : 6,      CONFIG : 'N U T, 0, 0, 0',
<<<<<<< HEAD
    X =  440.333  mm,    Y =   15.523  mm,    Z =   32.994  mm,
    W =  -190.486 deg,    P =   0.000 deg,    R =   0.000 deg
=======
    X =  435.967  mm,    Y =   100.799  mm,    Z =   -239.553  mm,
    W =  -180.000 deg,    P =   0.000 deg,    R =   0.000 deg
>>>>>>> 57c9ae60f3459af8128fdcb2050aaf603a61aea9
};
P[49]{
   GP1:
    UF : 0, UT : 6,      CONFIG : 'N U T, 0, 0, 0',
<<<<<<< HEAD
    X =  441.478  mm,    Y =   15.587  mm,    Z =   16.913  mm,
    W =  -190.108 deg,    P =   0.000 deg,    R =   0.000 deg
=======
    X =  434.979  mm,    Y =   95.120  mm,    Z =   -238.341  mm,
    W =  -180.000 deg,    P =   0.000 deg,    R =   0.000 deg
>>>>>>> 57c9ae60f3459af8128fdcb2050aaf603a61aea9
};
P[50]{
   GP1:
    UF : 0, UT : 6,      CONFIG : 'N U T, 0, 0, 0',
<<<<<<< HEAD
    X =  444.330  mm,    Y =   17.207  mm,    Z =   -0.433  mm,
    W =  -190.282 deg,    P =   0.000 deg,    R =   0.000 deg
=======
    X =  436.847  mm,    Y =   90.277  mm,    Z =   -238.394  mm,
    W =  -180.000 deg,    P =   0.000 deg,    R =   0.000 deg
>>>>>>> 57c9ae60f3459af8128fdcb2050aaf603a61aea9
};
P[51]{
   GP1:
    UF : 0, UT : 6,      CONFIG : 'N U T, 0, 0, 0',
<<<<<<< HEAD
    X =  448.976  mm,    Y =   16.531  mm,    Z =   -16.338  mm,
    W =  -190.297 deg,    P =   0.000 deg,    R =   0.000 deg
=======
    X =  436.614  mm,    Y =   85.656  mm,    Z =   -238.637  mm,
    W =  -180.000 deg,    P =   0.000 deg,    R =   0.000 deg
>>>>>>> 57c9ae60f3459af8128fdcb2050aaf603a61aea9
};
P[52]{
   GP1:
    UF : 0, UT : 6,      CONFIG : 'N U T, 0, 0, 0',
<<<<<<< HEAD
    X =  447.568  mm,    Y =   16.446  mm,    Z =   -44.016  mm,
    W =  -190.166 deg,    P =   0.000 deg,    R =   0.000 deg
=======
    X =  435.627  mm,    Y =   81.583  mm,    Z =   -239.909  mm,
    W =  -180.000 deg,    P =   0.000 deg,    R =   0.000 deg
>>>>>>> 57c9ae60f3459af8128fdcb2050aaf603a61aea9
};
P[53]{
   GP1:
    UF : 0, UT : 6,      CONFIG : 'N U T, 0, 0, 0',
<<<<<<< HEAD
    X =  450.503  mm,    Y =   15.110  mm,    Z =   -47.524  mm,
    W =  -190.184 deg,    P =   0.000 deg,    R =   0.000 deg
=======
    X =  434.894  mm,    Y =   75.213  mm,    Z =   -240.651  mm,
    W =  -180.000 deg,    P =   0.000 deg,    R =   0.000 deg
>>>>>>> 57c9ae60f3459af8128fdcb2050aaf603a61aea9
};
P[54]{
   GP1:
    UF : 0, UT : 6,      CONFIG : 'N U T, 0, 0, 0',
<<<<<<< HEAD
    X =  450.879  mm,    Y =   13.746  mm,    Z =   -49.741  mm,
    W =  -190.188 deg,    P =   0.000 deg,    R =   0.000 deg
=======
    X =  435.258  mm,    Y =   70.162  mm,    Z =   -240.589  mm,
    W =  -180.000 deg,    P =   0.000 deg,    R =   0.000 deg
>>>>>>> 57c9ae60f3459af8128fdcb2050aaf603a61aea9
};
P[55]{
   GP1:
    UF : 0, UT : 6,      CONFIG : 'N U T, 0, 0, 0',
<<<<<<< HEAD
    X =  447.538  mm,    Y =   13.948  mm,    Z =   -53.904  mm,
    W =  -190.154 deg,    P =   0.000 deg,    R =   0.000 deg
=======
    X =  435.113  mm,    Y =   65.370  mm,    Z =   -240.192  mm,
    W =  -180.000 deg,    P =   0.000 deg,    R =   0.000 deg
>>>>>>> 57c9ae60f3459af8128fdcb2050aaf603a61aea9
};
P[56]{
   GP1:
    UF : 0, UT : 6,      CONFIG : 'N U T, 0, 0, 0',
<<<<<<< HEAD
    X =  443.163  mm,    Y =   15.576  mm,    Z =   -58.192  mm,
    W =  -190.185 deg,    P =   0.000 deg,    R =   0.000 deg
=======
    X =  436.914  mm,    Y =   59.737  mm,    Z =   -239.197  mm,
    W =  -180.000 deg,    P =   0.000 deg,    R =   0.000 deg
>>>>>>> 57c9ae60f3459af8128fdcb2050aaf603a61aea9
};
P[57]{
   GP1:
    UF : 0, UT : 6,      CONFIG : 'N U T, 0, 0, 0',
<<<<<<< HEAD
    X =  438.576  mm,    Y =   15.730  mm,    Z =   -69.269  mm,
    W =  -190.134 deg,    P =   0.000 deg,    R =   0.000 deg
=======
    X =  435.382  mm,    Y =   55.463  mm,    Z =   -239.344  mm,
    W =  -180.000 deg,    P =   0.000 deg,    R =   0.000 deg
>>>>>>> 57c9ae60f3459af8128fdcb2050aaf603a61aea9
};
P[58]{
   GP1:
    UF : 0, UT : 6,      CONFIG : 'N U T, 0, 0, 0',
<<<<<<< HEAD
    X =  437.850  mm,    Y =   14.602  mm,    Z =   -80.467  mm,
    W =  -190.100 deg,    P =   0.000 deg,    R =   0.000 deg
=======
    X =  435.323  mm,    Y =   50.263  mm,    Z =   -239.529  mm,
    W =  -180.000 deg,    P =   0.000 deg,    R =   0.000 deg
>>>>>>> 57c9ae60f3459af8128fdcb2050aaf603a61aea9
};
P[59]{
   GP1:
    UF : 0, UT : 6,      CONFIG : 'N U T, 0, 0, 0',
<<<<<<< HEAD
    X =  436.374  mm,    Y =   14.896  mm,    Z =   -88.921  mm,
    W =  -190.041 deg,    P =   0.000 deg,    R =   0.000 deg
=======
    X =  434.763  mm,    Y =   45.420  mm,    Z =   -240.162  mm,
    W =  -180.000 deg,    P =   0.000 deg,    R =   0.000 deg
>>>>>>> 57c9ae60f3459af8128fdcb2050aaf603a61aea9
};
P[60]{
   GP1:
    UF : 0, UT : 6,      CONFIG : 'N U T, 0, 0, 0',
<<<<<<< HEAD
    X =  436.843  mm,    Y =   14.607  mm,    Z =   -96.044  mm,
    W =  -190.042 deg,    P =   0.000 deg,    R =   0.000 deg
=======
    X =  434.959  mm,    Y =   40.446  mm,    Z =   -241.075  mm,
    W =  -180.000 deg,    P =   0.000 deg,    R =   0.000 deg
>>>>>>> 57c9ae60f3459af8128fdcb2050aaf603a61aea9
};
P[61]{
   GP1:
    UF : 0, UT : 6,      CONFIG : 'N U T, 0, 0, 0',
<<<<<<< HEAD
    X =  434.963  mm,    Y =   17.402  mm,    Z =   -99.875  mm,
    W =  -190.042 deg,    P =   0.000 deg,    R =   0.000 deg
=======
    X =  434.843  mm,    Y =   35.014  mm,    Z =   -242.690  mm,
    W =  -180.000 deg,    P =   0.000 deg,    R =   0.000 deg
>>>>>>> 57c9ae60f3459af8128fdcb2050aaf603a61aea9
};
P[62]{
   GP1:
    UF : 0, UT : 6,      CONFIG : 'N U T, 0, 0, 0',
<<<<<<< HEAD
    X =  440.355  mm,    Y =   13.403  mm,    Z =   -109.161  mm,
    W =  -190.033 deg,    P =   0.000 deg,    R =   0.000 deg
=======
    X =  435.231  mm,    Y =   29.776  mm,    Z =   -245.721  mm,
    W =  -180.000 deg,    P =   0.000 deg,    R =   0.000 deg
>>>>>>> 57c9ae60f3459af8128fdcb2050aaf603a61aea9
};
P[63]{
   GP1:
    UF : 0, UT : 6,      CONFIG : 'N U T, 0, 0, 0',
<<<<<<< HEAD
    X =  450.886  mm,    Y =   13.172  mm,    Z =   -111.154  mm,
    W =  -190.038 deg,    P =   0.000 deg,    R =   0.000 deg
=======
    X =  434.794  mm,    Y =   25.302  mm,    Z =   -247.823  mm,
    W =  -180.000 deg,    P =   0.000 deg,    R =   0.000 deg
>>>>>>> 57c9ae60f3459af8128fdcb2050aaf603a61aea9
};
P[64]{
   GP1:
    UF : 0, UT : 6,      CONFIG : 'N U T, 0, 0, 0',
<<<<<<< HEAD
    X =  445.717  mm,    Y =   12.971  mm,    Z =   -110.389  mm,
    W =  -190.032 deg,    P =   0.000 deg,    R =   0.000 deg
=======
    X =  434.826  mm,    Y =   20.169  mm,    Z =   -248.511  mm,
    W =  -180.000 deg,    P =   0.000 deg,    R =   0.000 deg
>>>>>>> 57c9ae60f3459af8128fdcb2050aaf603a61aea9
};
P[65]{
   GP1:
    UF : 0, UT : 6,      CONFIG : 'N U T, 0, 0, 0',
<<<<<<< HEAD
    X =  454.712  mm,    Y =   13.650  mm,    Z =   -115.047  mm,
    W =  -190.037 deg,    P =   0.000 deg,    R =   0.000 deg
=======
    X =  434.873  mm,    Y =   15.104  mm,    Z =   -247.598  mm,
    W =  -180.000 deg,    P =   0.000 deg,    R =   0.000 deg
>>>>>>> 57c9ae60f3459af8128fdcb2050aaf603a61aea9
};
P[66]{
   GP1:
    UF : 0, UT : 6,      CONFIG : 'N U T, 0, 0, 0',
<<<<<<< HEAD
    X =  434.952  mm,    Y =   16.784  mm,    Z =   -114.587  mm,
    W =  -190.033 deg,    P =   0.000 deg,    R =   0.000 deg
=======
    X =  435.036  mm,    Y =   10.565  mm,    Z =   -245.706  mm,
    W =  -180.000 deg,    P =   0.000 deg,    R =   0.000 deg
>>>>>>> 57c9ae60f3459af8128fdcb2050aaf603a61aea9
};
P[67]{
   GP1:
    UF : 0, UT : 6,      CONFIG : 'N U T, 0, 0, 0',
<<<<<<< HEAD
    X =  437.266  mm,    Y =   14.418  mm,    Z =   -113.512  mm,
    W =  -190.032 deg,    P =   0.000 deg,    R =   0.000 deg
=======
    X =  435.001  mm,    Y =   5.379  mm,    Z =   -243.990  mm,
    W =  -180.000 deg,    P =   0.000 deg,    R =   0.000 deg
>>>>>>> 57c9ae60f3459af8128fdcb2050aaf603a61aea9
};
P[68]{
   GP1:
    UF : 0, UT : 6,      CONFIG : 'N U T, 0, 0, 0',
<<<<<<< HEAD
    X =  454.238  mm,    Y =   14.110  mm,    Z =   -127.268  mm,
    W =  -190.033 deg,    P =   0.000 deg,    R =   0.000 deg
=======
    X =  434.812  mm,    Y =   0.316  mm,    Z =   -243.363  mm,
    W =  -180.000 deg,    P =   0.000 deg,    R =   0.000 deg
>>>>>>> 57c9ae60f3459af8128fdcb2050aaf603a61aea9
};
P[69]{
   GP1:
    UF : 0, UT : 6,      CONFIG : 'N U T, 0, 0, 0',
<<<<<<< HEAD
    X =  435.620  mm,    Y =   16.506  mm,    Z =   -127.275  mm,
    W =  -190.002 deg,    P =   0.000 deg,    R =   0.000 deg
=======
    X =  435.103  mm,    Y =   -4.720  mm,    Z =   -243.720  mm,
    W =  -180.000 deg,    P =   0.000 deg,    R =   0.000 deg
>>>>>>> 57c9ae60f3459af8128fdcb2050aaf603a61aea9
};
P[70]{
   GP1:
    UF : 0, UT : 6,      CONFIG : 'N U T, 0, 0, 0',
<<<<<<< HEAD
    X =  437.486  mm,    Y =   14.352  mm,    Z =   -127.888  mm,
    W =  -189.997 deg,    P =   0.000 deg,    R =   0.000 deg
=======
    X =  436.686  mm,    Y =   -9.461  mm,    Z =   -244.379  mm,
    W =  -180.000 deg,    P =   0.000 deg,    R =   0.000 deg
>>>>>>> 57c9ae60f3459af8128fdcb2050aaf603a61aea9
};
P[71]{
   GP1:
    UF : 0, UT : 6,      CONFIG : 'N U T, 0, 0, 0',
<<<<<<< HEAD
    X =  440.014  mm,    Y =   13.626  mm,    Z =   -128.347  mm,
    W =  -189.997 deg,    P =   0.000 deg,    R =   0.000 deg
=======
    X =  436.947  mm,    Y =   -13.976  mm,    Z =   -244.743  mm,
    W =  -180.000 deg,    P =   0.000 deg,    R =   0.000 deg
>>>>>>> 57c9ae60f3459af8128fdcb2050aaf603a61aea9
};
P[72]{
   GP1:
    UF : 0, UT : 6,      CONFIG : 'N U T, 0, 0, 0',
<<<<<<< HEAD
    X =  436.020  mm,    Y =   16.143  mm,    Z =   -141.126  mm,
    W =  -189.934 deg,    P =   0.000 deg,    R =   0.000 deg
=======
    X =  434.858  mm,    Y =   -19.796  mm,    Z =   -247.351  mm,
    W =  -180.000 deg,    P =   0.000 deg,    R =   0.000 deg
>>>>>>> 57c9ae60f3459af8128fdcb2050aaf603a61aea9
};
P[73]{
   GP1:
    UF : 0, UT : 6,      CONFIG : 'N U T, 0, 0, 0',
<<<<<<< HEAD
    X =  438.265  mm,    Y =   13.489  mm,    Z =   -141.000  mm,
    W =  -189.933 deg,    P =   0.000 deg,    R =   0.000 deg
=======
    X =  436.879  mm,    Y =   -22.855  mm,    Z =   -250.052  mm,
    W =  -180.000 deg,    P =   0.000 deg,    R =   0.000 deg
>>>>>>> 57c9ae60f3459af8128fdcb2050aaf603a61aea9
};
P[74]{
   GP1:
    UF : 0, UT : 6,      CONFIG : 'N U T, 0, 0, 0',
<<<<<<< HEAD
    X =  456.711  mm,    Y =   11.853  mm,    Z =   -143.685  mm,
    W =  -189.997 deg,    P =   0.000 deg,    R =   0.000 deg
=======
    X =  436.536  mm,    Y =   -34.799  mm,    Z =   -253.784  mm,
    W =  -180.000 deg,    P =   0.000 deg,    R =   0.000 deg
>>>>>>> 57c9ae60f3459af8128fdcb2050aaf603a61aea9
};
P[75]{
   GP1:
    UF : 0, UT : 6,      CONFIG : 'N U T, 0, 0, 0',
<<<<<<< HEAD
    X =  437.508  mm,    Y =   13.952  mm,    Z =   -152.712  mm,
    W =  -189.840 deg,    P =   0.000 deg,    R =   0.000 deg
=======
    X =  434.986  mm,    Y =   -39.744  mm,    Z =   -253.318  mm,
    W =  -180.000 deg,    P =   0.000 deg,    R =   0.000 deg
>>>>>>> 57c9ae60f3459af8128fdcb2050aaf603a61aea9
};
P[76]{
   GP1:
    UF : 0, UT : 6,      CONFIG : 'N U T, 0, 0, 0',
<<<<<<< HEAD
    X =  436.050  mm,    Y =   14.477  mm,    Z =   -157.775  mm,
    W =  -189.818 deg,    P =   0.000 deg,    R =   0.000 deg
=======
    X =  434.883  mm,    Y =   -44.479  mm,    Z =   -252.224  mm,
    W =  -180.000 deg,    P =   0.000 deg,    R =   0.000 deg
>>>>>>> 57c9ae60f3459af8128fdcb2050aaf603a61aea9
};
P[77]{
   GP1:
    UF : 0, UT : 6,      CONFIG : 'N U T, 0, 0, 0',
<<<<<<< HEAD
    X =  435.946  mm,    Y =   13.807  mm,    Z =   -168.116  mm,
    W =  -189.756 deg,    P =   0.000 deg,    R =   0.000 deg
=======
    X =  434.960  mm,    Y =   -49.143  mm,    Z =   -249.448  mm,
    W =  -180.000 deg,    P =   0.000 deg,    R =   0.000 deg
>>>>>>> 57c9ae60f3459af8128fdcb2050aaf603a61aea9
};
P[78]{
   GP1:
    UF : 0, UT : 6,      CONFIG : 'N U T, 0, 0, 0',
<<<<<<< HEAD
    X =  434.741  mm,    Y =   16.125  mm,    Z =   -185.201  mm,
    W =  -189.668 deg,    P =   0.000 deg,    R =   0.000 deg
=======
    X =  434.996  mm,    Y =   -54.532  mm,    Z =   -247.447  mm,
    W =  -180.000 deg,    P =   0.000 deg,    R =   0.000 deg
>>>>>>> 57c9ae60f3459af8128fdcb2050aaf603a61aea9
};
P[79]{
   GP1:
    UF : 0, UT : 6,      CONFIG : 'N U T, 0, 0, 0',
<<<<<<< HEAD
    X =  436.484  mm,    Y =   13.485  mm,    Z =   -183.145  mm,
    W =  -189.655 deg,    P =   0.000 deg,    R =   0.000 deg
=======
    X =  435.025  mm,    Y =   -59.811  mm,    Z =   -246.950  mm,
    W =  -180.000 deg,    P =   0.000 deg,    R =   0.000 deg
>>>>>>> 57c9ae60f3459af8128fdcb2050aaf603a61aea9
};
P[80]{
   GP1:
    UF : 0, UT : 6,      CONFIG : 'N U T, 0, 0, 0',
<<<<<<< HEAD
    X =  435.564  mm,    Y =   13.486  mm,    Z =   -194.875  mm,
    W =  -189.602 deg,    P =   0.000 deg,    R =   0.000 deg
=======
    X =  435.106  mm,    Y =   -64.701  mm,    Z =   -246.389  mm,
    W =  -180.000 deg,    P =   0.000 deg,    R =   0.000 deg
>>>>>>> 57c9ae60f3459af8128fdcb2050aaf603a61aea9
};
P[81]{
   GP1:
    UF : 0, UT : 6,      CONFIG : 'N U T, 0, 0, 0',
<<<<<<< HEAD
    X =  433.963  mm,    Y =   13.566  mm,    Z =   -213.845  mm,
    W =  -189.521 deg,    P =   0.000 deg,    R =   0.000 deg
=======
    X =  435.099  mm,    Y =   -69.606  mm,    Z =   -246.472  mm,
    W =  -180.000 deg,    P =   0.000 deg,    R =   0.000 deg
>>>>>>> 57c9ae60f3459af8128fdcb2050aaf603a61aea9
};
P[82]{
   GP1:
    UF : 0, UT : 6,      CONFIG : 'N U T, 0, 0, 0',
<<<<<<< HEAD
    X =  431.501  mm,    Y =   15.496  mm,    Z =   -228.168  mm,
    W =  -189.451 deg,    P =   0.000 deg,    R =   0.000 deg
=======
    X =  434.966  mm,    Y =   -74.627  mm,    Z =   -247.204  mm,
    W =  -180.000 deg,    P =   0.000 deg,    R =   0.000 deg
>>>>>>> 57c9ae60f3459af8128fdcb2050aaf603a61aea9
};
P[83]{
   GP1:
    UF : 0, UT : 6,      CONFIG : 'N U T, 0, 0, 0',
<<<<<<< HEAD
    X =  433.501  mm,    Y =   12.969  mm,    Z =   -226.172  mm,
    W =  -189.443 deg,    P =   0.000 deg,    R =   0.000 deg
=======
    X =  434.928  mm,    Y =   -79.785  mm,    Z =   -247.683  mm,
    W =  -180.000 deg,    P =   0.000 deg,    R =   0.000 deg
>>>>>>> 57c9ae60f3459af8128fdcb2050aaf603a61aea9
};
P[84]{
   GP1:
    UF : 0, UT : 6,      CONFIG : 'N U T, 0, 0, 0',
<<<<<<< HEAD
    X =  432.826  mm,    Y =   13.520  mm,    Z =   -241.560  mm,
    W =  -189.357 deg,    P =   0.000 deg,    R =   0.000 deg
=======
    X =  435.193  mm,    Y =   -84.188  mm,    Z =   -248.620  mm,
    W =  -180.000 deg,    P =   0.000 deg,    R =   0.000 deg
>>>>>>> 57c9ae60f3459af8128fdcb2050aaf603a61aea9
};
P[85]{
   GP1:
    UF : 0, UT : 6,      CONFIG : 'N U T, 0, 0, 0',
<<<<<<< HEAD
    X =  433.378  mm,    Y =   13.146  mm,    Z =   -253.003  mm,
    W =  -189.247 deg,    P =   0.000 deg,    R =   0.000 deg
=======
    X =  434.678  mm,    Y =   -88.194  mm,    Z =   -250.746  mm,
    W =  -180.000 deg,    P =   0.000 deg,    R =   0.000 deg
>>>>>>> 57c9ae60f3459af8128fdcb2050aaf603a61aea9
};
P[86]{
   GP1:
    UF : 0, UT : 6,      CONFIG : 'N U T, 0, 0, 0',
<<<<<<< HEAD
    X =  432.317  mm,    Y =   13.316  mm,    Z =   -260.601  mm,
    W =  -189.174 deg,    P =   0.000 deg,    R =   0.000 deg
=======
    X =  434.847  mm,    Y =   -94.019  mm,    Z =   -254.724  mm,
    W =  -180.000 deg,    P =   0.000 deg,    R =   0.000 deg
>>>>>>> 57c9ae60f3459af8128fdcb2050aaf603a61aea9
};
P[87]{
   GP1:
    UF : 0, UT : 6,      CONFIG : 'N U T, 0, 0, 0',
<<<<<<< HEAD
    X =  432.714  mm,    Y =   13.087  mm,    Z =   -270.469  mm,
    W =  -189.116 deg,    P =   0.000 deg,    R =   0.000 deg
=======
    X =  435.028  mm,    Y =   -99.849  mm,    Z =   -256.831  mm,
    W =  -180.000 deg,    P =   0.000 deg,    R =   0.000 deg
>>>>>>> 57c9ae60f3459af8128fdcb2050aaf603a61aea9
};
P[88]{
   GP1:
    UF : 0, UT : 6,      CONFIG : 'N U T, 0, 0, 0',
<<<<<<< HEAD
    X =  432.763  mm,    Y =   11.887  mm,    Z =   -282.739  mm,
    W =  -188.951 deg,    P =   0.000 deg,    R =   0.000 deg
=======
    X =  434.779  mm,    Y =   -104.657  mm,    Z =   -257.207  mm,
    W =  -180.000 deg,    P =   0.000 deg,    R =   0.000 deg
>>>>>>> 57c9ae60f3459af8128fdcb2050aaf603a61aea9
};
P[89]{
   GP1:
    UF : 0, UT : 6,      CONFIG : 'N U T, 0, 0, 0',
<<<<<<< HEAD
    X =  434.664  mm,    Y =   14.586  mm,    Z =   -356.325  mm,
    W =  -188.409 deg,    P =   0.000 deg,    R =   0.000 deg
=======
    X =  434.635  mm,    Y =   -109.784  mm,    Z =   -256.396  mm,
    W =  -180.000 deg,    P =   0.000 deg,    R =   0.000 deg
>>>>>>> 57c9ae60f3459af8128fdcb2050aaf603a61aea9
};
P[90]{
   GP1:
    UF : 0, UT : 6,      CONFIG : 'N U T, 0, 0, 0',
<<<<<<< HEAD
    X =  435.143  mm,    Y =   11.513  mm,    Z =   -368.437  mm,
    W =  -188.457 deg,    P =   0.000 deg,    R =   0.000 deg
=======
    X =  435.421  mm,    Y =   -114.736  mm,    Z =   -254.620  mm,
    W =  -180.000 deg,    P =   0.000 deg,    R =   0.000 deg
>>>>>>> 57c9ae60f3459af8128fdcb2050aaf603a61aea9
};
P[91]{
   GP1:
    UF : 0, UT : 6,      CONFIG : 'N U T, 0, 0, 0',
<<<<<<< HEAD
    X =  434.732  mm,    Y =   12.112  mm,    Z =   -373.897  mm,
    W =  -188.308 deg,    P =   0.000 deg,    R =   0.000 deg
=======
    X =  435.020  mm,    Y =   -185.420  mm,    Z =   -254.620  mm,
    W =  -180.000 deg,    P =   0.000 deg,    R =   0.000 deg
>>>>>>> 57c9ae60f3459af8128fdcb2050aaf603a61aea9
};
P[92]{
   GP1:
    UF : 0, UT : 6,      CONFIG : 'N U T, 0, 0, 0',
<<<<<<< HEAD
    X =  435.423  mm,    Y =   11.063  mm,    Z =   -386.253  mm,
    W =  -188.083 deg,    P =   0.000 deg,    R =   0.000 deg
=======
    X =  420.000  mm,    Y =   -185.420  mm,    Z =   -255.903  mm,
    W =  -180.000 deg,    P =   0.000 deg,    R =   0.000 deg
>>>>>>> 57c9ae60f3459af8128fdcb2050aaf603a61aea9
};
P[93]{
   GP1:
    UF : 0, UT : 6,      CONFIG : 'N U T, 0, 0, 0',
<<<<<<< HEAD
    X =  437.000  mm,    Y =   13.993  mm,    Z =   -403.413  mm,
    W =  -187.991 deg,    P =   0.000 deg,    R =   0.000 deg
=======
    X =  421.649  mm,    Y =   -124.861  mm,    Z =   -255.903  mm,
    W =  -180.000 deg,    P =   0.000 deg,    R =   0.000 deg
>>>>>>> 57c9ae60f3459af8128fdcb2050aaf603a61aea9
};
P[94]{
   GP1:
    UF : 0, UT : 6,      CONFIG : 'N U T, 0, 0, 0',
<<<<<<< HEAD
    X =  436.470  mm,    Y =   11.253  mm,    Z =   -400.982  mm,
    W =  -188.018 deg,    P =   0.000 deg,    R =   0.000 deg
=======
    X =  421.524  mm,    Y =   -120.450  mm,    Z =   -255.487  mm,
    W =  -180.000 deg,    P =   0.000 deg,    R =   0.000 deg
>>>>>>> 57c9ae60f3459af8128fdcb2050aaf603a61aea9
};
P[95]{
   GP1:
    UF : 0, UT : 6,      CONFIG : 'N U T, 0, 0, 0',
<<<<<<< HEAD
    X =  437.268  mm,    Y =   11.080  mm,    Z =   -414.109  mm,
    W =  -187.824 deg,    P =   0.000 deg,    R =   0.000 deg
=======
    X =  421.766  mm,    Y =   -114.086  mm,    Z =   -254.759  mm,
    W =  -180.000 deg,    P =   0.000 deg,    R =   0.000 deg
>>>>>>> 57c9ae60f3459af8128fdcb2050aaf603a61aea9
};
P[96]{
   GP1:
    UF : 0, UT : 6,      CONFIG : 'N U T, 0, 0, 0',
<<<<<<< HEAD
    X =  437.969  mm,    Y =   13.828  mm,    Z =   -417.418  mm,
    W =  -187.834 deg,    P =   0.000 deg,    R =   0.000 deg
=======
    X =  420.073  mm,    Y =   -109.792  mm,    Z =   -257.093  mm,
    W =  -180.000 deg,    P =   0.000 deg,    R =   0.000 deg
>>>>>>> 57c9ae60f3459af8128fdcb2050aaf603a61aea9
};
P[97]{
   GP1:
    UF : 0, UT : 6,      CONFIG : 'N U T, 0, 0, 0',
<<<<<<< HEAD
    X =  438.855  mm,    Y =   12.697  mm,    Z =   -427.355  mm,
    W =  -187.445 deg,    P =   0.000 deg,    R =   0.000 deg
=======
    X =  421.326  mm,    Y =   -104.542  mm,    Z =   -259.420  mm,
    W =  -180.000 deg,    P =   0.000 deg,    R =   0.000 deg
>>>>>>> 57c9ae60f3459af8128fdcb2050aaf603a61aea9
};
P[98]{
   GP1:
    UF : 0, UT : 6,      CONFIG : 'N U T, 0, 0, 0',
<<<<<<< HEAD
    X =  438.109  mm,    Y =   11.092  mm,    Z =   -428.539  mm,
    W =  -187.467 deg,    P =   0.000 deg,    R =   0.000 deg
=======
    X =  419.944  mm,    Y =   -94.942  mm,    Z =   -259.660  mm,
    W =  -180.000 deg,    P =   0.000 deg,    R =   0.000 deg
>>>>>>> 57c9ae60f3459af8128fdcb2050aaf603a61aea9
};
P[99]{
   GP1:
    UF : 0, UT : 6,      CONFIG : 'N U T, 0, 0, 0',
<<<<<<< HEAD
    X =  439.109  mm,    Y =   13.507  mm,    Z =   -446.041  mm,
    W =  -187.163 deg,    P =   0.000 deg,    R =   0.000 deg
=======
    X =  421.457  mm,    Y =   -89.153  mm,    Z =   -258.305  mm,
    W =  -180.000 deg,    P =   0.000 deg,    R =   0.000 deg
>>>>>>> 57c9ae60f3459af8128fdcb2050aaf603a61aea9
};
P[100]{
   GP1:
    UF : 0, UT : 6,      CONFIG : 'N U T, 0, 0, 0',
<<<<<<< HEAD
    X =  438.154  mm,    Y =   10.215  mm,    Z =   -502.278  mm,
    W =  -186.817 deg,    P =   0.000 deg,    R =   0.000 deg
=======
    X =  419.213  mm,    Y =   -84.818  mm,    Z =   -260.777  mm,
    W =  -180.000 deg,    P =   0.000 deg,    R =   0.000 deg
>>>>>>> 57c9ae60f3459af8128fdcb2050aaf603a61aea9
};
P[101]{
   GP1:
    UF : 0, UT : 6,      CONFIG : 'N U T, 0, 0, 0',
<<<<<<< HEAD
    X =  442.704  mm,    Y =   11.583  mm,    Z =   -565.463  mm,
    W =  -185.842 deg,    P =   0.000 deg,    R =   0.000 deg
=======
    X =  421.886  mm,    Y =   -79.849  mm,    Z =   -256.394  mm,
    W =  -180.000 deg,    P =   0.000 deg,    R =   0.000 deg
>>>>>>> 57c9ae60f3459af8128fdcb2050aaf603a61aea9
};
P[102]{
   GP1:
    UF : 0, UT : 6,      CONFIG : 'N U T, 0, 0, 0',
<<<<<<< HEAD
    X =  442.928  mm,    Y =   11.444  mm,    Z =   -568.878  mm,
    W =  -185.838 deg,    P =   0.000 deg,    R =   0.000 deg
=======
    X =  418.841  mm,    Y =   -79.747  mm,    Z =   -261.523  mm,
    W =  -180.000 deg,    P =   0.000 deg,    R =   0.000 deg
>>>>>>> 57c9ae60f3459af8128fdcb2050aaf603a61aea9
};
P[103]{
   GP1:
    UF : 0, UT : 6,      CONFIG : 'N U T, 0, 0, 0',
<<<<<<< HEAD
    X =  424.679  mm,    Y =   9.041  mm,    Z =   -772.362  mm,
=======
    X =  418.866  mm,    Y =   -74.649  mm,    Z =   -261.311  mm,
>>>>>>> 57c9ae60f3459af8128fdcb2050aaf603a61aea9
    W =  -180.000 deg,    P =   0.000 deg,    R =   0.000 deg
};
P[104]{
   GP1:
    UF : 0, UT : 6,      CONFIG : 'N U T, 0, 0, 0',
<<<<<<< HEAD
    X =  455.177  mm,    Y =   -6.908  mm,    Z =   -762.583  mm,
=======
    X =  421.015  mm,    Y =   -69.981  mm,    Z =   -257.852  mm,
>>>>>>> 57c9ae60f3459af8128fdcb2050aaf603a61aea9
    W =  -180.000 deg,    P =   0.000 deg,    R =   0.000 deg
};
P[105]{
   GP1:
    UF : 0, UT : 6,      CONFIG : 'N U T, 0, 0, 0',
<<<<<<< HEAD
    X =  444.008  mm,    Y =   -2.592  mm,    Z =   -590.101  mm,
    W =  -184.852 deg,    P =   0.000 deg,    R =   0.000 deg
=======
    X =  418.737  mm,    Y =   -69.904  mm,    Z =   -261.634  mm,
    W =  -180.000 deg,    P =   0.000 deg,    R =   0.000 deg
>>>>>>> 57c9ae60f3459af8128fdcb2050aaf603a61aea9
};
P[106]{
   GP1:
    UF : 0, UT : 6,      CONFIG : 'N U T, 0, 0, 0',
<<<<<<< HEAD
    X =  442.636  mm,    Y =   -2.701  mm,    Z =   -575.337  mm,
    W =  -185.329 deg,    P =   0.000 deg,    R =   0.000 deg
=======
    X =  421.955  mm,    Y =   -67.770  mm,    Z =   -255.098  mm,
    W =  -180.000 deg,    P =   0.000 deg,    R =   0.000 deg
>>>>>>> 57c9ae60f3459af8128fdcb2050aaf603a61aea9
};
P[107]{
   GP1:
    UF : 0, UT : 6,      CONFIG : 'N U T, 0, 0, 0',
<<<<<<< HEAD
    X =  441.832  mm,    Y =   -2.584  mm,    Z =   -559.846  mm,
    W =  -185.851 deg,    P =   0.000 deg,    R =   0.000 deg
=======
    X =  418.603  mm,    Y =   -66.481  mm,    Z =   -261.249  mm,
    W =  -180.000 deg,    P =   0.000 deg,    R =   0.000 deg
>>>>>>> 57c9ae60f3459af8128fdcb2050aaf603a61aea9
};
P[108]{
   GP1:
    UF : 0, UT : 6,      CONFIG : 'N U T, 0, 0, 0',
<<<<<<< HEAD
    X =  441.181  mm,    Y =   -2.391  mm,    Z =   -545.766  mm,
    W =  -185.817 deg,    P =   0.000 deg,    R =   0.000 deg
=======
    X =  420.303  mm,    Y =   -60.419  mm,    Z =   -253.929  mm,
    W =  -180.000 deg,    P =   0.000 deg,    R =   0.000 deg
>>>>>>> 57c9ae60f3459af8128fdcb2050aaf603a61aea9
};
P[109]{
   GP1:
    UF : 0, UT : 6,      CONFIG : 'N U T, 0, 0, 0',
<<<<<<< HEAD
    X =  440.361  mm,    Y =   -2.290  mm,    Z =   -530.409  mm,
    W =  -186.058 deg,    P =   0.000 deg,    R =   0.000 deg
=======
    X =  420.799  mm,    Y =   -49.916  mm,    Z =   -254.389  mm,
    W =  -180.000 deg,    P =   0.000 deg,    R =   0.000 deg
>>>>>>> 57c9ae60f3459af8128fdcb2050aaf603a61aea9
};
P[110]{
   GP1:
    UF : 0, UT : 6,      CONFIG : 'N U T, 0, 0, 0',
<<<<<<< HEAD
    X =  439.789  mm,    Y =   -2.077  mm,    Z =   -516.995  mm,
    W =  -186.531 deg,    P =   0.000 deg,    R =   0.000 deg
=======
    X =  421.236  mm,    Y =   -23.653  mm,    Z =   -255.558  mm,
    W =  -180.000 deg,    P =   0.000 deg,    R =   0.000 deg
>>>>>>> 57c9ae60f3459af8128fdcb2050aaf603a61aea9
};
P[111]{
   GP1:
    UF : 0, UT : 6,      CONFIG : 'N U T, 0, 0, 0',
<<<<<<< HEAD
    X =  439.352  mm,    Y =   -1.539  mm,    Z =   -504.009  mm,
    W =  -187.011 deg,    P =   0.000 deg,    R =   0.000 deg
=======
    X =  419.138  mm,    Y =   -20.216  mm,    Z =   -256.638  mm,
    W =  -180.000 deg,    P =   0.000 deg,    R =   0.000 deg
>>>>>>> 57c9ae60f3459af8128fdcb2050aaf603a61aea9
};
P[112]{
   GP1:
    UF : 0, UT : 6,      CONFIG : 'N U T, 0, 0, 0',
<<<<<<< HEAD
    X =  439.015  mm,    Y =   -1.678  mm,    Z =   -488.561  mm,
    W =  -186.738 deg,    P =   0.000 deg,    R =   0.000 deg
=======
    X =  421.289  mm,    Y =   -19.425  mm,    Z =   -253.588  mm,
    W =  -180.000 deg,    P =   0.000 deg,    R =   0.000 deg
>>>>>>> 57c9ae60f3459af8128fdcb2050aaf603a61aea9
};
P[113]{
   GP1:
    UF : 0, UT : 6,      CONFIG : 'N U T, 0, 0, 0',
<<<<<<< HEAD
    X =  438.418  mm,    Y =   -1.216  mm,    Z =   -473.461  mm,
    W =  -186.632 deg,    P =   0.000 deg,    R =   0.000 deg
=======
    X =  418.459  mm,    Y =   -16.370  mm,    Z =   -255.405  mm,
    W =  -180.000 deg,    P =   0.000 deg,    R =   0.000 deg
>>>>>>> 57c9ae60f3459af8128fdcb2050aaf603a61aea9
};
P[114]{
   GP1:
    UF : 0, UT : 6,      CONFIG : 'N U T, 0, 0, 0',
<<<<<<< HEAD
    X =  437.726  mm,    Y =   -0.448  mm,    Z =   -460.448  mm,
    W =  -186.824 deg,    P =   0.000 deg,    R =   0.000 deg
=======
    X =  421.131  mm,    Y =   -14.394  mm,    Z =   -250.452  mm,
    W =  -180.000 deg,    P =   0.000 deg,    R =   0.000 deg
>>>>>>> 57c9ae60f3459af8128fdcb2050aaf603a61aea9
};
P[115]{
   GP1:
    UF : 0, UT : 6,      CONFIG : 'N U T, 0, 0, 0',
<<<<<<< HEAD
    X =  438.062  mm,    Y =   -2.121  mm,    Z =   -453.000  mm,
    W =  -186.870 deg,    P =   0.000 deg,    R =   0.000 deg
=======
    X =  421.820  mm,    Y =   -9.952  mm,    Z =   -248.122  mm,
    W =  -180.000 deg,    P =   0.000 deg,    R =   0.000 deg
>>>>>>> 57c9ae60f3459af8128fdcb2050aaf603a61aea9
};
P[116]{
   GP1:
    UF : 0, UT : 6,      CONFIG : 'N U T, 0, 0, 0',
<<<<<<< HEAD
    X =  438.214  mm,    Y =   -0.879  mm,    Z =   -444.586  mm,
    W =  -186.956 deg,    P =   0.000 deg,    R =   0.000 deg
=======
    X =  421.265  mm,    Y =   -4.417  mm,    Z =   -248.335  mm,
    W =  -180.000 deg,    P =   0.000 deg,    R =   0.000 deg
>>>>>>> 57c9ae60f3459af8128fdcb2050aaf603a61aea9
};
P[117]{
   GP1:
    UF : 0, UT : 6,      CONFIG : 'N U T, 0, 0, 0',
<<<<<<< HEAD
    X =  437.821  mm,    Y =   -1.133  mm,    Z =   -430.650  mm,
    W =  -187.289 deg,    P =   0.000 deg,    R =   0.000 deg
=======
    X =  418.873  mm,    Y =   -3.595  mm,    Z =   -250.306  mm,
    W =  -180.000 deg,    P =   0.000 deg,    R =   0.000 deg
>>>>>>> 57c9ae60f3459af8128fdcb2050aaf603a61aea9
};
P[118]{
   GP1:
    UF : 0, UT : 6,      CONFIG : 'N U T, 0, 0, 0',
<<<<<<< HEAD
    X =  438.017  mm,    Y =   -0.340  mm,    Z =   -417.546  mm,
    W =  -187.435 deg,    P =   0.000 deg,    R =   0.000 deg
=======
    X =  419.001  mm,    Y =   0.286  mm,    Z =   -250.621  mm,
    W =  -180.000 deg,    P =   0.000 deg,    R =   0.000 deg
>>>>>>> 57c9ae60f3459af8128fdcb2050aaf603a61aea9
};
P[119]{
   GP1:
    UF : 0, UT : 6,      CONFIG : 'N U T, 0, 0, 0',
<<<<<<< HEAD
    X =  437.123  mm,    Y =   -0.842  mm,    Z =   -401.871  mm,
    W =  -187.966 deg,    P =   0.000 deg,    R =   0.000 deg
=======
    X =  421.509  mm,    Y =   0.597  mm,    Z =   -248.653  mm,
    W =  -180.000 deg,    P =   0.000 deg,    R =   0.000 deg
>>>>>>> 57c9ae60f3459af8128fdcb2050aaf603a61aea9
};
P[120]{
   GP1:
    UF : 0, UT : 6,      CONFIG : 'N U T, 0, 0, 0',
<<<<<<< HEAD
    X =  436.585  mm,    Y =   -0.137  mm,    Z =   -387.616  mm,
    W =  -188.093 deg,    P =   0.000 deg,    R =   0.000 deg
=======
    X =  421.477  mm,    Y =   5.355  mm,    Z =   -248.271  mm,
    W =  -180.000 deg,    P =   0.000 deg,    R =   0.000 deg
>>>>>>> 57c9ae60f3459af8128fdcb2050aaf603a61aea9
};
P[121]{
   GP1:
    UF : 0, UT : 6,      CONFIG : 'N U T, 0, 0, 0',
<<<<<<< HEAD
    X =  436.106  mm,    Y =   -0.476  mm,    Z =   -371.407  mm,
    W =  -188.229 deg,    P =   0.000 deg,    R =   0.000 deg
=======
    X =  420.671  mm,    Y =   10.642  mm,    Z =   -248.357  mm,
    W =  -180.000 deg,    P =   0.000 deg,    R =   0.000 deg
>>>>>>> 57c9ae60f3459af8128fdcb2050aaf603a61aea9
};
P[122]{
   GP1:
    UF : 0, UT : 6,      CONFIG : 'N U T, 0, 0, 0',
<<<<<<< HEAD
    X =  435.882  mm,    Y =   0.205  mm,    Z =   -357.846  mm,
    W =  -188.483 deg,    P =   0.000 deg,    R =   0.000 deg
=======
    X =  419.878  mm,    Y =   15.239  mm,    Z =   -248.266  mm,
    W =  -180.000 deg,    P =   0.000 deg,    R =   0.000 deg
>>>>>>> 57c9ae60f3459af8128fdcb2050aaf603a61aea9
};
P[123]{
   GP1:
    UF : 0, UT : 6,      CONFIG : 'N U T, 0, 0, 0',
<<<<<<< HEAD
    X =  436.694  mm,    Y =   -0.529  mm,    Z =   -343.051  mm,
    W =  -188.391 deg,    P =   0.000 deg,    R =   0.000 deg
=======
    X =  420.028  mm,    Y =   20.121  mm,    Z =   -247.704  mm,
    W =  -180.000 deg,    P =   0.000 deg,    R =   0.000 deg
>>>>>>> 57c9ae60f3459af8128fdcb2050aaf603a61aea9
};
P[124]{
   GP1:
    UF : 0, UT : 6,      CONFIG : 'N U T, 0, 0, 0',
<<<<<<< HEAD
    X =  436.340  mm,    Y =   0.766  mm,    Z =   -301.677  mm,
    W =  -188.601 deg,    P =   0.000 deg,    R =   0.000 deg
=======
    X =  419.883  mm,    Y =   25.101  mm,    Z =   -246.826  mm,
    W =  -180.000 deg,    P =   0.000 deg,    R =   0.000 deg
>>>>>>> 57c9ae60f3459af8128fdcb2050aaf603a61aea9
};
P[125]{
   GP1:
    UF : 0, UT : 6,      CONFIG : 'N U T, 0, 0, 0',
<<<<<<< HEAD
    X =  441.294  mm,    Y =   -2.276  mm,    Z =   -290.208  mm,
    W =  -188.686 deg,    P =   0.000 deg,    R =   0.000 deg
=======
    X =  420.720  mm,    Y =   30.865  mm,    Z =   -244.559  mm,
    W =  -180.000 deg,    P =   0.000 deg,    R =   0.000 deg
>>>>>>> 57c9ae60f3459af8128fdcb2050aaf603a61aea9
};
P[126]{
   GP1:
    UF : 0, UT : 6,      CONFIG : 'N U T, 0, 0, 0',
<<<<<<< HEAD
    X =  440.274  mm,    Y =   0.955  mm,    Z =   -289.856  mm,
    W =  -188.764 deg,    P =   0.000 deg,    R =   0.000 deg
=======
    X =  420.307  mm,    Y =   35.403  mm,    Z =   -243.332  mm,
    W =  -180.000 deg,    P =   0.000 deg,    R =   0.000 deg
>>>>>>> 57c9ae60f3459af8128fdcb2050aaf603a61aea9
};
P[127]{
   GP1:
    UF : 0, UT : 6,      CONFIG : 'N U T, 0, 0, 0',
<<<<<<< HEAD
    X =  442.469  mm,    Y =   1.319  mm,    Z =   -171.649  mm,
    W =  -189.670 deg,    P =   0.000 deg,    R =   0.000 deg
=======
    X =  420.137  mm,    Y =   40.068  mm,    Z =   -242.413  mm,
    W =  -180.000 deg,    P =   0.000 deg,    R =   0.000 deg
>>>>>>> 57c9ae60f3459af8128fdcb2050aaf603a61aea9
};
P[128]{
   GP1:
    UF : 0, UT : 6,      CONFIG : 'N U T, 0, 0, 0',
<<<<<<< HEAD
    X =  443.021  mm,    Y =   1.677  mm,    Z =   -158.999  mm,
    W =  -189.759 deg,    P =   0.000 deg,    R =   0.000 deg
=======
    X =  419.946  mm,    Y =   45.245  mm,    Z =   -241.555  mm,
    W =  -180.000 deg,    P =   0.000 deg,    R =   0.000 deg
>>>>>>> 57c9ae60f3459af8128fdcb2050aaf603a61aea9
};
P[129]{
   GP1:
    UF : 0, UT : 6,      CONFIG : 'N U T, 0, 0, 0',
<<<<<<< HEAD
    X =  445.549  mm,    Y =   2.180  mm,    Z =   -145.964  mm,
    W =  -189.838 deg,    P =   0.000 deg,    R =   0.000 deg
=======
    X =  421.541  mm,    Y =   50.286  mm,    Z =   -240.628  mm,
    W =  -180.000 deg,    P =   0.000 deg,    R =   0.000 deg
>>>>>>> 57c9ae60f3459af8128fdcb2050aaf603a61aea9
};
P[130]{
   GP1:
    UF : 0, UT : 6,      CONFIG : 'N U T, 0, 0, 0',
<<<<<<< HEAD
    X =  440.086  mm,    Y =   -1.006  mm,    Z =   -141.006  mm,
    W =  -189.835 deg,    P =   0.000 deg,    R =   0.000 deg
=======
    X =  421.240  mm,    Y =   55.046  mm,    Z =   -240.610  mm,
    W =  -180.000 deg,    P =   0.000 deg,    R =   0.000 deg
>>>>>>> 57c9ae60f3459af8128fdcb2050aaf603a61aea9
};
P[131]{
   GP1:
    UF : 0, UT : 6,      CONFIG : 'N U T, 0, 0, 0',
<<<<<<< HEAD
    X =  447.012  mm,    Y =   2.102  mm,    Z =   -136.701  mm,
    W =  -189.928 deg,    P =   0.000 deg,    R =   0.000 deg
=======
    X =  421.663  mm,    Y =   60.298  mm,    Z =   -240.466  mm,
    W =  -180.000 deg,    P =   0.000 deg,    R =   0.000 deg
>>>>>>> 57c9ae60f3459af8128fdcb2050aaf603a61aea9
};
P[132]{
   GP1:
    UF : 0, UT : 6,      CONFIG : 'N U T, 0, 0, 0',
<<<<<<< HEAD
    X =  445.725  mm,    Y =   1.784  mm,    Z =   -113.691  mm,
    W =  -190.002 deg,    P =   0.000 deg,    R =   0.000 deg
=======
    X =  420.048  mm,    Y =   65.274  mm,    Z =   -241.120  mm,
    W =  -180.000 deg,    P =   0.000 deg,    R =   0.000 deg
>>>>>>> 57c9ae60f3459af8128fdcb2050aaf603a61aea9
};
P[133]{
   GP1:
    UF : 0, UT : 6,      CONFIG : 'N U T, 0, 0, 0',
<<<<<<< HEAD
    X =  443.567  mm,    Y =   1.930  mm,    Z =   -100.862  mm,
    W =  -190.010 deg,    P =   0.000 deg,    R =   0.000 deg
=======
    X =  420.141  mm,    Y =   70.019  mm,    Z =   -240.850  mm,
    W =  -180.000 deg,    P =   0.000 deg,    R =   0.000 deg
>>>>>>> 57c9ae60f3459af8128fdcb2050aaf603a61aea9
};
P[134]{
   GP1:
    UF : 0, UT : 6,      CONFIG : 'N U T, 0, 0, 0',
<<<<<<< HEAD
    X =  441.346  mm,    Y =   2.666  mm,    Z =   -88.790  mm,
    W =  -190.028 deg,    P =   0.000 deg,    R =   0.000 deg
=======
    X =  419.985  mm,    Y =   75.306  mm,    Z =   -240.657  mm,
    W =  -180.000 deg,    P =   0.000 deg,    R =   0.000 deg
>>>>>>> 57c9ae60f3459af8128fdcb2050aaf603a61aea9
};
P[135]{
   GP1:
    UF : 0, UT : 6,      CONFIG : 'N U T, 0, 0, 0',
<<<<<<< HEAD
    X =  434.616  mm,    Y =   0.583  mm,    Z =   -69.655  mm,
    W =  -190.021 deg,    P =   0.000 deg,    R =   0.000 deg
=======
    X =  421.752  mm,    Y =   80.301  mm,    Z =   -239.725  mm,
    W =  -180.000 deg,    P =   0.000 deg,    R =   0.000 deg
>>>>>>> 57c9ae60f3459af8128fdcb2050aaf603a61aea9
};
P[136]{
   GP1:
    UF : 0, UT : 6,      CONFIG : 'N U T, 0, 0, 0',
<<<<<<< HEAD
    X =  436.269  mm,    Y =   2.125  mm,    Z =   -56.992  mm,
    W =  -190.110 deg,    P =   0.000 deg,    R =   0.000 deg
=======
    X =  421.630  mm,    Y =   85.034  mm,    Z =   -239.522  mm,
    W =  -180.000 deg,    P =   0.000 deg,    R =   0.000 deg
>>>>>>> 57c9ae60f3459af8128fdcb2050aaf603a61aea9
};
P[137]{
   GP1:
    UF : 0, UT : 6,      CONFIG : 'N U T, 0, 0, 0',
<<<<<<< HEAD
    X =  433.886  mm,    Y =   0.432  mm,    Z =   -40.301  mm,
    W =  -190.170 deg,    P =   0.000 deg,    R =   0.000 deg
=======
    X =  420.427  mm,    Y =   89.817  mm,    Z =   -239.501  mm,
    W =  -180.000 deg,    P =   0.000 deg,    R =   0.000 deg
>>>>>>> 57c9ae60f3459af8128fdcb2050aaf603a61aea9
};
P[138]{
   GP1:
    UF : 0, UT : 6,      CONFIG : 'N U T, 0, 0, 0',
<<<<<<< HEAD
    X =  438.342  mm,    Y =   3.069  mm,    Z =   -41.783  mm,
    W =  -190.155 deg,    P =   0.000 deg,    R =   0.000 deg
=======
    X =  419.951  mm,    Y =   94.591  mm,    Z =   -239.231  mm,
    W =  -180.000 deg,    P =   0.000 deg,    R =   0.000 deg
>>>>>>> 57c9ae60f3459af8128fdcb2050aaf603a61aea9
};
P[139]{
   GP1:
    UF : 0, UT : 6,      CONFIG : 'N U T, 0, 0, 0',
<<<<<<< HEAD
    X =  437.935  mm,    Y =   2.283  mm,    Z =   -29.228  mm,
    W =  -190.182 deg,    P =   0.000 deg,    R =   0.000 deg
=======
    X =  421.906  mm,    Y =   101.154  mm,    Z =   -239.793  mm,
    W =  -180.000 deg,    P =   0.000 deg,    R =   0.000 deg
>>>>>>> 57c9ae60f3459af8128fdcb2050aaf603a61aea9
};
P[140]{
   GP1:
    UF : 0, UT : 6,      CONFIG : 'N U T, 0, 0, 0',
<<<<<<< HEAD
    X =  438.930  mm,    Y =   3.042  mm,    Z =   -15.486  mm,
    W =  -190.160 deg,    P =   0.000 deg,    R =   0.000 deg
=======
    X =  420.280  mm,    Y =   105.547  mm,    Z =   -240.405  mm,
    W =  -180.000 deg,    P =   0.000 deg,    R =   0.000 deg
>>>>>>> 57c9ae60f3459af8128fdcb2050aaf603a61aea9
};
P[141]{
   GP1:
    UF : 0, UT : 6,      CONFIG : 'N U T, 0, 0, 0',
<<<<<<< HEAD
    X =  434.348  mm,    Y =   0.758  mm,    Z =   -10.426  mm,
    W =  -190.155 deg,    P =   0.000 deg,    R =   0.000 deg
=======
    X =  420.051  mm,    Y =   110.221  mm,    Z =   -241.307  mm,
    W =  -180.000 deg,    P =   0.000 deg,    R =   0.000 deg
>>>>>>> 57c9ae60f3459af8128fdcb2050aaf603a61aea9
};
P[142]{
   GP1:
    UF : 0, UT : 6,      CONFIG : 'N U T, 0, 0, 0',
<<<<<<< HEAD
    X =  433.528  mm,    Y =   1.263  mm,    Z =   2.039  mm,
    W =  -190.261 deg,    P =   0.000 deg,    R =   0.000 deg
=======
    X =  419.884  mm,    Y =   115.166  mm,    Z =   -242.505  mm,
    W =  -180.000 deg,    P =   0.000 deg,    R =   0.000 deg
>>>>>>> 57c9ae60f3459af8128fdcb2050aaf603a61aea9
};
P[143]{
   GP1:
    UF : 0, UT : 6,      CONFIG : 'N U T, 0, 0, 0',
<<<<<<< HEAD
    X =  436.763  mm,    Y =   3.387  mm,    Z =   0.659  mm,
    W =  -190.167 deg,    P =   0.000 deg,    R =   0.000 deg
=======
    X =  419.978  mm,    Y =   120.047  mm,    Z =   -244.521  mm,
    W =  -180.000 deg,    P =   0.000 deg,    R =   0.000 deg
>>>>>>> 57c9ae60f3459af8128fdcb2050aaf603a61aea9
};
P[144]{
   GP1:
    UF : 0, UT : 6,      CONFIG : 'N U T, 0, 0, 0',
<<<<<<< HEAD
    X =  433.466  mm,    Y =   5.169  mm,    Z =   28.842  mm,
    W =  -190.237 deg,    P =   0.000 deg,    R =   0.000 deg
=======
    X =  420.156  mm,    Y =   125.388  mm,    Z =   -245.813  mm,
    W =  -180.000 deg,    P =   0.000 deg,    R =   0.000 deg
>>>>>>> 57c9ae60f3459af8128fdcb2050aaf603a61aea9
};
P[145]{
   GP1:
    UF : 0, UT : 6,      CONFIG : 'N U T, 0, 0, 0',
<<<<<<< HEAD
    X =  431.002  mm,    Y =   3.409  mm,    Z =   33.902  mm,
    W =  -190.105 deg,    P =   0.000 deg,    R =   0.000 deg
=======
    X =  420.000  mm,    Y =   185.420  mm,    Z =   -245.813  mm,
    W =  -180.000 deg,    P =   0.000 deg,    R =   0.000 deg
>>>>>>> 57c9ae60f3459af8128fdcb2050aaf603a61aea9
};
P[146]{
   GP1:
    UF : 0, UT : 6,      CONFIG : 'N U T, 0, 0, 0',
<<<<<<< HEAD
    X =  432.351  mm,    Y =   4.786  mm,    Z =   45.327  mm,
    W =  -190.589 deg,    P =   0.000 deg,    R =   0.000 deg
=======
    X =  404.980  mm,    Y =   185.420  mm,    Z =   -244.361  mm,
    W =  -180.000 deg,    P =   0.000 deg,    R =   0.000 deg
>>>>>>> 57c9ae60f3459af8128fdcb2050aaf603a61aea9
};
P[147]{
   GP1:
    UF : 0, UT : 6,      CONFIG : 'N U T, 0, 0, 0',
<<<<<<< HEAD
    X =  420.419  mm,    Y =   6.204  mm,    Z =   220.506  mm,
=======
    X =  405.530  mm,    Y =   114.999  mm,    Z =   -244.361  mm,
>>>>>>> 57c9ae60f3459af8128fdcb2050aaf603a61aea9
    W =  -180.000 deg,    P =   0.000 deg,    R =   0.000 deg
};
P[148]{
   GP1:
    UF : 0, UT : 6,      CONFIG : 'N U T, 0, 0, 0',
<<<<<<< HEAD
    X =  380.489  mm,    Y =   -4.678  mm,    Z =   239.478  mm,
=======
    X =  405.152  mm,    Y =   110.534  mm,    Z =   -242.907  mm,
>>>>>>> 57c9ae60f3459af8128fdcb2050aaf603a61aea9
    W =  -180.000 deg,    P =   0.000 deg,    R =   0.000 deg
};
P[149]{
   GP1:
    UF : 0, UT : 6,      CONFIG : 'N U T, 0, 0, 0',
<<<<<<< HEAD
    X =  424.903  mm,    Y =   -10.196  mm,    Z =   45.151  mm,
    W =  -190.416 deg,    P =   0.000 deg,    R =   0.000 deg
=======
    X =  405.001  mm,    Y =   105.300  mm,    Z =   -241.383  mm,
    W =  -180.000 deg,    P =   0.000 deg,    R =   0.000 deg
>>>>>>> 57c9ae60f3459af8128fdcb2050aaf603a61aea9
};
P[150]{
   GP1:
    UF : 0, UT : 6,      CONFIG : 'N U T, 0, 0, 0',
<<<<<<< HEAD
    X =  424.185  mm,    Y =   -10.475  mm,    Z =   32.740  mm,
    W =  -190.243 deg,    P =   0.000 deg,    R =   0.000 deg
=======
    X =  405.292  mm,    Y =   96.758  mm,    Z =   -238.910  mm,
    W =  -180.000 deg,    P =   0.000 deg,    R =   0.000 deg
>>>>>>> 57c9ae60f3459af8128fdcb2050aaf603a61aea9
};
P[151]{
   GP1:
    UF : 0, UT : 6,      CONFIG : 'N U T, 0, 0, 0',
<<<<<<< HEAD
    X =  423.925  mm,    Y =   -8.478  mm,    Z =   26.280  mm,
    W =  -190.313 deg,    P =   0.000 deg,    R =   0.000 deg
=======
    X =  405.174  mm,    Y =   90.219  mm,    Z =   -238.213  mm,
    W =  -180.000 deg,    P =   0.000 deg,    R =   0.000 deg
>>>>>>> 57c9ae60f3459af8128fdcb2050aaf603a61aea9
};
P[152]{
   GP1:
    UF : 0, UT : 6,      CONFIG : 'N U T, 0, 0, 0',
<<<<<<< HEAD
    X =  424.468  mm,    Y =   -10.790  mm,    Z =   24.155  mm,
    W =  -190.393 deg,    P =   0.000 deg,    R =   0.000 deg
=======
    X =  405.139  mm,    Y =   85.383  mm,    Z =   -238.292  mm,
    W =  -180.000 deg,    P =   0.000 deg,    R =   0.000 deg
>>>>>>> 57c9ae60f3459af8128fdcb2050aaf603a61aea9
};
P[153]{
   GP1:
    UF : 0, UT : 6,      CONFIG : 'N U T, 0, 0, 0',
<<<<<<< HEAD
    X =  423.811  mm,    Y =   -9.944  mm,    Z =   16.545  mm,
    W =  -190.266 deg,    P =   0.000 deg,    R =   0.000 deg
=======
    X =  405.563  mm,    Y =   80.986  mm,    Z =   -239.168  mm,
    W =  -180.000 deg,    P =   0.000 deg,    R =   0.000 deg
>>>>>>> 57c9ae60f3459af8128fdcb2050aaf603a61aea9
};
P[154]{
   GP1:
    UF : 0, UT : 6,      CONFIG : 'N U T, 0, 0, 0',
<<<<<<< HEAD
    X =  423.053  mm,    Y =   -10.043  mm,    Z =   2.638  mm,
    W =  -190.142 deg,    P =   0.000 deg,    R =   0.000 deg
=======
    X =  406.348  mm,    Y =   76.628  mm,    Z =   -239.466  mm,
    W =  -180.000 deg,    P =   0.000 deg,    R =   0.000 deg
>>>>>>> 57c9ae60f3459af8128fdcb2050aaf603a61aea9
};
P[155]{
   GP1:
    UF : 0, UT : 6,      CONFIG : 'N U T, 0, 0, 0',
<<<<<<< HEAD
    X =  422.861  mm,    Y =   -10.455  mm,    Z =   -11.572  mm,
    W =  -190.156 deg,    P =   0.000 deg,    R =   0.000 deg
=======
    X =  405.110  mm,    Y =   65.081  mm,    Z =   -239.169  mm,
    W =  -180.000 deg,    P =   0.000 deg,    R =   0.000 deg
>>>>>>> 57c9ae60f3459af8128fdcb2050aaf603a61aea9
};
P[156]{
   GP1:
    UF : 0, UT : 6,      CONFIG : 'N U T, 0, 0, 0',
<<<<<<< HEAD
    X =  422.972  mm,    Y =   -10.522  mm,    Z =   -26.778  mm,
    W =  -190.116 deg,    P =   0.000 deg,    R =   0.000 deg
=======
    X =  405.021  mm,    Y =   60.311  mm,    Z =   -238.753  mm,
    W =  -180.000 deg,    P =   0.000 deg,    R =   0.000 deg
>>>>>>> 57c9ae60f3459af8128fdcb2050aaf603a61aea9
};
P[157]{
   GP1:
    UF : 0, UT : 6,      CONFIG : 'N U T, 0, 0, 0',
<<<<<<< HEAD
    X =  422.184  mm,    Y =   -11.322  mm,    Z =   -29.733  mm,
    W =  -190.075 deg,    P =   0.000 deg,    R =   0.000 deg
=======
    X =  406.743  mm,    Y =   50.314  mm,    Z =   -238.818  mm,
    W =  -180.000 deg,    P =   0.000 deg,    R =   0.000 deg
>>>>>>> 57c9ae60f3459af8128fdcb2050aaf603a61aea9
};
P[158]{
   GP1:
    UF : 0, UT : 6,      CONFIG : 'N U T, 0, 0, 0',
<<<<<<< HEAD
    X =  423.801  mm,    Y =   -9.297  mm,    Z =   -38.450  mm,
    W =  -190.081 deg,    P =   0.000 deg,    R =   0.000 deg
=======
    X =  405.738  mm,    Y =   45.489  mm,    Z =   -239.301  mm,
    W =  -180.000 deg,    P =   0.000 deg,    R =   0.000 deg
>>>>>>> 57c9ae60f3459af8128fdcb2050aaf603a61aea9
};
P[159]{
   GP1:
    UF : 0, UT : 6,      CONFIG : 'N U T, 0, 0, 0',
<<<<<<< HEAD
    X =  423.076  mm,    Y =   -9.645  mm,    Z =   -45.989  mm,
    W =  -189.999 deg,    P =   0.000 deg,    R =   0.000 deg
=======
    X =  404.796  mm,    Y =   40.223  mm,    Z =   -240.242  mm,
    W =  -180.000 deg,    P =   0.000 deg,    R =   0.000 deg
>>>>>>> 57c9ae60f3459af8128fdcb2050aaf603a61aea9
};
P[160]{
   GP1:
    UF : 0, UT : 6,      CONFIG : 'N U T, 0, 0, 0',
<<<<<<< HEAD
    X =  422.456  mm,    Y =   -10.875  mm,    Z =   -55.888  mm,
    W =  -189.993 deg,    P =   0.000 deg,    R =   0.000 deg
=======
    X =  405.002  mm,    Y =   35.104  mm,    Z =   -241.553  mm,
    W =  -180.000 deg,    P =   0.000 deg,    R =   0.000 deg
>>>>>>> 57c9ae60f3459af8128fdcb2050aaf603a61aea9
};
P[161]{
   GP1:
    UF : 0, UT : 6,      CONFIG : 'N U T, 0, 0, 0',
<<<<<<< HEAD
    X =  422.756  mm,    Y =   -10.698  mm,    Z =   -71.191  mm,
    W =  -190.018 deg,    P =   0.000 deg,    R =   0.000 deg
=======
    X =  404.962  mm,    Y =   30.310  mm,    Z =   -243.627  mm,
    W =  -180.000 deg,    P =   0.000 deg,    R =   0.000 deg
>>>>>>> 57c9ae60f3459af8128fdcb2050aaf603a61aea9
};
P[162]{
   GP1:
    UF : 0, UT : 6,      CONFIG : 'N U T, 0, 0, 0',
<<<<<<< HEAD
    X =  423.413  mm,    Y =   -11.041  mm,    Z =   -84.752  mm,
    W =  -190.029 deg,    P =   0.000 deg,    R =   0.000 deg
=======
    X =  405.027  mm,    Y =   26.352  mm,    Z =   -245.039  mm,
    W =  -180.000 deg,    P =   0.000 deg,    R =   0.000 deg
>>>>>>> 57c9ae60f3459af8128fdcb2050aaf603a61aea9
};
P[163]{
   GP1:
    UF : 0, UT : 6,      CONFIG : 'N U T, 0, 0, 0',
<<<<<<< HEAD
    X =  423.946  mm,    Y =   -11.558  mm,    Z =   -98.270  mm,
    W =  -189.987 deg,    P =   0.000 deg,    R =   0.000 deg
=======
    X =  405.084  mm,    Y =   20.279  mm,    Z =   -247.234  mm,
    W =  -180.000 deg,    P =   0.000 deg,    R =   0.000 deg
>>>>>>> 57c9ae60f3459af8128fdcb2050aaf603a61aea9
};
P[164]{
   GP1:
    UF : 0, UT : 6,      CONFIG : 'N U T, 0, 0, 0',
<<<<<<< HEAD
    X =  424.357  mm,    Y =   -11.488  mm,    Z =   -113.718  mm,
    W =  -189.916 deg,    P =   0.000 deg,    R =   0.000 deg
=======
    X =  405.632  mm,    Y =   14.500  mm,    Z =   -248.855  mm,
    W =  -180.000 deg,    P =   0.000 deg,    R =   0.000 deg
>>>>>>> 57c9ae60f3459af8128fdcb2050aaf603a61aea9
};
P[165]{
   GP1:
    UF : 0, UT : 6,      CONFIG : 'N U T, 0, 0, 0',
<<<<<<< HEAD
    X =  424.632  mm,    Y =   -11.791  mm,    Z =   -126.944  mm,
    W =  -189.828 deg,    P =   0.000 deg,    R =   0.000 deg
=======
    X =  403.694  mm,    Y =   10.310  mm,    Z =   -248.255  mm,
    W =  -180.000 deg,    P =   0.000 deg,    R =   0.000 deg
>>>>>>> 57c9ae60f3459af8128fdcb2050aaf603a61aea9
};
P[166]{
   GP1:
    UF : 0, UT : 6,      CONFIG : 'N U T, 0, 0, 0',
<<<<<<< HEAD
    X =  425.403  mm,    Y =   -10.957  mm,    Z =   -142.722  mm,
    W =  -189.756 deg,    P =   0.000 deg,    R =   0.000 deg
=======
    X =  406.279  mm,    Y =   6.018  mm,    Z =   -250.286  mm,
    W =  -180.000 deg,    P =   0.000 deg,    R =   0.000 deg
>>>>>>> 57c9ae60f3459af8128fdcb2050aaf603a61aea9
};
P[167]{
   GP1:
    UF : 0, UT : 6,      CONFIG : 'N U T, 0, 0, 0',
<<<<<<< HEAD
    X =  423.771  mm,    Y =   -12.895  mm,    Z =   -141.238  mm,
    W =  -189.756 deg,    P =   0.000 deg,    R =   0.000 deg
=======
    X =  403.338  mm,    Y =   -53.120  mm,    Z =   -251.761  mm,
    W =  -180.000 deg,    P =   0.000 deg,    R =   0.000 deg
>>>>>>> 57c9ae60f3459af8128fdcb2050aaf603a61aea9
};
P[168]{
   GP1:
    UF : 0, UT : 6,      CONFIG : 'N U T, 0, 0, 0',
<<<<<<< HEAD
    X =  423.945  mm,    Y =   -12.672  mm,    Z =   -154.506  mm,
    W =  -189.642 deg,    P =   0.000 deg,    R =   0.000 deg
=======
    X =  403.331  mm,    Y =   -80.353  mm,    Z =   -254.223  mm,
    W =  -180.000 deg,    P =   0.000 deg,    R =   0.000 deg
>>>>>>> 57c9ae60f3459af8128fdcb2050aaf603a61aea9
};
P[169]{
   GP1:
    UF : 0, UT : 6,      CONFIG : 'N U T, 0, 0, 0',
<<<<<<< HEAD
    X =  426.950  mm,    Y =   -10.674  mm,    Z =   -170.085  mm,
    W =  -189.567 deg,    P =   0.000 deg,    R =   0.000 deg
=======
    X =  406.725  mm,    Y =   -85.218  mm,    Z =   -261.348  mm,
    W =  -180.000 deg,    P =   0.000 deg,    R =   0.000 deg
>>>>>>> 57c9ae60f3459af8128fdcb2050aaf603a61aea9
};
P[170]{
   GP1:
    UF : 0, UT : 6,      CONFIG : 'N U T, 0, 0, 0',
<<<<<<< HEAD
    X =  424.227  mm,    Y =   -12.779  mm,    Z =   -169.511  mm,
    W =  -189.567 deg,    P =   0.000 deg,    R =   0.000 deg
=======
    X =  404.225  mm,    Y =   -85.466  mm,    Z =   -257.484  mm,
    W =  -180.000 deg,    P =   0.000 deg,    R =   0.000 deg
>>>>>>> 57c9ae60f3459af8128fdcb2050aaf603a61aea9
};
P[171]{
   GP1:
    UF : 0, UT : 6,      CONFIG : 'N U T, 0, 0, 0',
<<<<<<< HEAD
    X =  425.478  mm,    Y =   -10.697  mm,    Z =   -186.603  mm,
    W =  -189.482 deg,    P =   0.000 deg,    R =   0.000 deg
=======
    X =  406.739  mm,    Y =   -89.436  mm,    Z =   -259.068  mm,
    W =  -180.000 deg,    P =   0.000 deg,    R =   0.000 deg
>>>>>>> 57c9ae60f3459af8128fdcb2050aaf603a61aea9
};
P[172]{
   GP1:
    UF : 0, UT : 6,      CONFIG : 'N U T, 0, 0, 0',
<<<<<<< HEAD
    X =  424.698  mm,    Y =   -10.725  mm,    Z =   -198.804  mm,
    W =  -189.403 deg,    P =   0.000 deg,    R =   0.000 deg
=======
    X =  405.136  mm,    Y =   -94.853  mm,    Z =   -257.922  mm,
    W =  -180.000 deg,    P =   0.000 deg,    R =   0.000 deg
>>>>>>> 57c9ae60f3459af8128fdcb2050aaf603a61aea9
};
P[173]{
   GP1:
    UF : 0, UT : 6,      CONFIG : 'N U T, 0, 0, 0',
<<<<<<< HEAD
    X =  422.834  mm,    Y =   -12.594  mm,    Z =   -200.924  mm,
    W =  -189.355 deg,    P =   0.000 deg,    R =   0.000 deg
=======
    X =  404.973  mm,    Y =   -99.768  mm,    Z =   -257.881  mm,
    W =  -180.000 deg,    P =   0.000 deg,    R =   0.000 deg
>>>>>>> 57c9ae60f3459af8128fdcb2050aaf603a61aea9
};
P[174]{
   GP1:
    UF : 0, UT : 6,      CONFIG : 'N U T, 0, 0, 0',
<<<<<<< HEAD
    X =  421.961  mm,    Y =   -13.320  mm,    Z =   -210.682  mm,
    W =  -189.316 deg,    P =   0.000 deg,    R =   0.000 deg
=======
    X =  405.203  mm,    Y =   -104.768  mm,    Z =   -257.581  mm,
    W =  -180.000 deg,    P =   0.000 deg,    R =   0.000 deg
>>>>>>> 57c9ae60f3459af8128fdcb2050aaf603a61aea9
};
P[175]{
   GP1:
    UF : 0, UT : 6,      CONFIG : 'N U T, 0, 0, 0',
<<<<<<< HEAD
    X =  424.100  mm,    Y =   -14.194  mm,    Z =   -256.623  mm,
    W =  -188.826 deg,    P =   0.000 deg,    R =   0.000 deg
=======
    X =  405.530  mm,    Y =   -109.051  mm,    Z =   -255.643  mm,
    W =  -180.000 deg,    P =   0.000 deg,    R =   0.000 deg
>>>>>>> 57c9ae60f3459af8128fdcb2050aaf603a61aea9
};
P[176]{
   GP1:
    UF : 0, UT : 6,      CONFIG : 'N U T, 0, 0, 0',
<<<<<<< HEAD
    X =  426.203  mm,    Y =   -14.002  mm,    Z =   -271.339  mm,
    W =  -188.741 deg,    P =   0.000 deg,    R =   0.000 deg
=======
    X =  402.987  mm,    Y =   -109.521  mm,    Z =   -253.845  mm,
    W =  -180.000 deg,    P =   0.000 deg,    R =   0.000 deg
>>>>>>> 57c9ae60f3459af8128fdcb2050aaf603a61aea9
};
P[177]{
   GP1:
    UF : 0, UT : 6,      CONFIG : 'N U T, 0, 0, 0',
<<<<<<< HEAD
    X =  428.620  mm,    Y =   -12.177  mm,    Z =   -285.468  mm,
    W =  -188.499 deg,    P =   0.000 deg,    R =   0.000 deg
=======
    X =  404.973  mm,    Y =   -114.615  mm,    Z =   -251.612  mm,
    W =  -180.000 deg,    P =   0.000 deg,    R =   0.000 deg
>>>>>>> 57c9ae60f3459af8128fdcb2050aaf603a61aea9
};
P[178]{
   GP1:
    UF : 0, UT : 6,      CONFIG : 'N U T, 0, 0, 0',
<<<<<<< HEAD
    X =  429.990  mm,    Y =   -12.101  mm,    Z =   -293.377  mm,
    W =  -188.413 deg,    P =   0.000 deg,    R =   0.000 deg
=======
    X =  405.204  mm,    Y =   -119.871  mm,    Z =   -251.383  mm,
    W =  -180.000 deg,    P =   0.000 deg,    R =   0.000 deg
>>>>>>> 57c9ae60f3459af8128fdcb2050aaf603a61aea9
};
P[179]{
   GP1:
    UF : 0, UT : 6,      CONFIG : 'N U T, 0, 0, 0',
<<<<<<< HEAD
    X =  428.830  mm,    Y =   -14.960  mm,    Z =   -297.102  mm,
    W =  -188.411 deg,    P =   0.000 deg,    R =   0.000 deg
=======
    X =  404.488  mm,    Y =   -124.625  mm,    Z =   -251.967  mm,
    W =  -180.000 deg,    P =   0.000 deg,    R =   0.000 deg
>>>>>>> 57c9ae60f3459af8128fdcb2050aaf603a61aea9
};
P[180]{
   GP1:
    UF : 0, UT : 6,      CONFIG : 'N U T, 0, 0, 0',
<<<<<<< HEAD
    X =  430.812  mm,    Y =   -12.800  mm,    Z =   -302.124  mm,
    W =  -188.397 deg,    P =   0.000 deg,    R =   0.000 deg
=======
    X =  404.980  mm,    Y =   -185.420  mm,    Z =   -251.967  mm,
    W =  -180.000 deg,    P =   0.000 deg,    R =   0.000 deg
>>>>>>> 57c9ae60f3459af8128fdcb2050aaf603a61aea9
};
P[181]{
   GP1:
    UF : 0, UT : 6,      CONFIG : 'N U T, 0, 0, 0',
<<<<<<< HEAD
    X =  432.078  mm,    Y =   -13.296  mm,    Z =   -314.602  mm,
    W =  -188.393 deg,    P =   0.000 deg,    R =   0.000 deg
=======
    X =  389.959  mm,    Y =   -185.420  mm,    Z =   -248.460  mm,
    W =  -180.000 deg,    P =   0.000 deg,    R =   0.000 deg
>>>>>>> 57c9ae60f3459af8128fdcb2050aaf603a61aea9
};
P[182]{
   GP1:
    UF : 0, UT : 6,      CONFIG : 'N U T, 0, 0, 0',
<<<<<<< HEAD
    X =  432.664  mm,    Y =   -12.947  mm,    Z =   -328.960  mm,
    W =  -188.447 deg,    P =   0.000 deg,    R =   0.000 deg
=======
    X =  389.768  mm,    Y =   -114.763  mm,    Z =   -248.460  mm,
    W =  -180.000 deg,    P =   0.000 deg,    R =   0.000 deg
>>>>>>> 57c9ae60f3459af8128fdcb2050aaf603a61aea9
};
P[183]{
   GP1:
    UF : 0, UT : 6,      CONFIG : 'N U T, 0, 0, 0',
<<<<<<< HEAD
    X =  430.836  mm,    Y =   -15.030  mm,    Z =   -328.214  mm,
    W =  -188.493 deg,    P =   0.000 deg,    R =   0.000 deg
=======
    X =  390.064  mm,    Y =   -110.301  mm,    Z =   -250.079  mm,
    W =  -180.000 deg,    P =   0.000 deg,    R =   0.000 deg
>>>>>>> 57c9ae60f3459af8128fdcb2050aaf603a61aea9
};
P[184]{
   GP1:
    UF : 0, UT : 6,      CONFIG : 'N U T, 0, 0, 0',
<<<<<<< HEAD
    X =  430.385  mm,    Y =   -14.330  mm,    Z =   -343.252  mm,
    W =  -188.388 deg,    P =   0.000 deg,    R =   0.000 deg
=======
    X =  390.023  mm,    Y =   -104.996  mm,    Z =   -252.914  mm,
    W =  -180.000 deg,    P =   0.000 deg,    R =   0.000 deg
>>>>>>> 57c9ae60f3459af8128fdcb2050aaf603a61aea9
};
P[185]{
   GP1:
    UF : 0, UT : 6,      CONFIG : 'N U T, 0, 0, 0',
<<<<<<< HEAD
    X =  429.626  mm,    Y =   -14.029  mm,    Z =   -358.227  mm,
    W =  -188.244 deg,    P =   0.000 deg,    R =   0.000 deg
=======
    X =  389.927  mm,    Y =   -94.617  mm,    Z =   -252.839  mm,
    W =  -180.000 deg,    P =   0.000 deg,    R =   0.000 deg
>>>>>>> 57c9ae60f3459af8128fdcb2050aaf603a61aea9
};
P[186]{
   GP1:
    UF : 0, UT : 6,      CONFIG : 'N U T, 0, 0, 0',
<<<<<<< HEAD
    X =  430.114  mm,    Y =   -13.860  mm,    Z =   -372.059  mm,
    W =  -188.176 deg,    P =   0.000 deg,    R =   0.000 deg
=======
    X =  390.106  mm,    Y =   -89.591  mm,    Z =   -250.831  mm,
    W =  -180.000 deg,    P =   0.000 deg,    R =   0.000 deg
>>>>>>> 57c9ae60f3459af8128fdcb2050aaf603a61aea9
};
P[187]{
   GP1:
    UF : 0, UT : 6,      CONFIG : 'N U T, 0, 0, 0',
<<<<<<< HEAD
    X =  429.005  mm,    Y =   -15.614  mm,    Z =   -370.770  mm,
    W =  -188.102 deg,    P =   0.000 deg,    R =   0.000 deg
=======
    X =  389.939  mm,    Y =   -79.771  mm,    Z =   -247.157  mm,
    W =  -180.000 deg,    P =   0.000 deg,    R =   0.000 deg
>>>>>>> 57c9ae60f3459af8128fdcb2050aaf603a61aea9
};
P[188]{
   GP1:
    UF : 0, UT : 6,      CONFIG : 'N U T, 0, 0, 0',
<<<<<<< HEAD
    X =  430.989  mm,    Y =   -13.357  mm,    Z =   -388.593  mm,
    W =  -187.717 deg,    P =   0.000 deg,    R =   0.000 deg
=======
    X =  389.987  mm,    Y =   -74.695  mm,    Z =   -246.773  mm,
    W =  -180.000 deg,    P =   0.000 deg,    R =   0.000 deg
>>>>>>> 57c9ae60f3459af8128fdcb2050aaf603a61aea9
};
P[189]{
   GP1:
    UF : 0, UT : 6,      CONFIG : 'N U T, 0, 0, 0',
<<<<<<< HEAD
    X =  430.522  mm,    Y =   -13.358  mm,    Z =   -389.771  mm,
    W =  -187.703 deg,    P =   0.000 deg,    R =   0.000 deg
=======
    X =  389.858  mm,    Y =   -69.799  mm,    Z =   -246.697  mm,
    W =  -180.000 deg,    P =   0.000 deg,    R =   0.000 deg
>>>>>>> 57c9ae60f3459af8128fdcb2050aaf603a61aea9
};
P[190]{
   GP1:
    UF : 0, UT : 6,      CONFIG : 'N U T, 0, 0, 0',
<<<<<<< HEAD
    X =  430.007  mm,    Y =   -15.355  mm,    Z =   -399.352  mm,
    W =  -187.460 deg,    P =   0.000 deg,    R =   0.000 deg
=======
    X =  390.177  mm,    Y =   -64.897  mm,    Z =   -246.626  mm,
    W =  -180.000 deg,    P =   0.000 deg,    R =   0.000 deg
>>>>>>> 57c9ae60f3459af8128fdcb2050aaf603a61aea9
};
P[191]{
   GP1:
    UF : 0, UT : 6,      CONFIG : 'N U T, 0, 0, 0',
<<<<<<< HEAD
    X =  430.162  mm,    Y =   -15.093  mm,    Z =   -415.067  mm,
    W =  -187.152 deg,    P =   0.000 deg,    R =   0.000 deg
=======
    X =  390.063  mm,    Y =   -59.635  mm,    Z =   -246.960  mm,
    W =  -180.000 deg,    P =   0.000 deg,    R =   0.000 deg
>>>>>>> 57c9ae60f3459af8128fdcb2050aaf603a61aea9
};
P[192]{
   GP1:
    UF : 0, UT : 6,      CONFIG : 'N U T, 0, 0, 0',
<<<<<<< HEAD
    X =  430.554  mm,    Y =   -15.602  mm,    Z =   -429.097  mm,
    W =  -186.936 deg,    P =   0.000 deg,    R =   0.000 deg
=======
    X =  389.858  mm,    Y =   -54.683  mm,    Z =   -247.537  mm,
    W =  -180.000 deg,    P =   0.000 deg,    R =   0.000 deg
>>>>>>> 57c9ae60f3459af8128fdcb2050aaf603a61aea9
};
P[193]{
   GP1:
    UF : 0, UT : 6,      CONFIG : 'N U T, 0, 0, 0',
<<<<<<< HEAD
    X =  431.772  mm,    Y =   -15.468  mm,    Z =   -444.451  mm,
    W =  -186.736 deg,    P =   0.000 deg,    R =   0.000 deg
=======
    X =  391.052  mm,    Y =   -44.155  mm,    Z =   -250.545  mm,
    W =  -180.000 deg,    P =   0.000 deg,    R =   0.000 deg
>>>>>>> 57c9ae60f3459af8128fdcb2050aaf603a61aea9
};
P[194]{
   GP1:
    UF : 0, UT : 6,      CONFIG : 'N U T, 0, 0, 0',
<<<<<<< HEAD
    X =  432.827  mm,    Y =   -15.703  mm,    Z =   -457.677  mm,
    W =  -186.775 deg,    P =   0.000 deg,    R =   0.000 deg
=======
    X =  390.089  mm,    Y =   -39.732  mm,    Z =   -251.217  mm,
    W =  -180.000 deg,    P =   0.000 deg,    R =   0.000 deg
>>>>>>> 57c9ae60f3459af8128fdcb2050aaf603a61aea9
};
P[195]{
   GP1:
    UF : 0, UT : 6,      CONFIG : 'N U T, 0, 0, 0',
<<<<<<< HEAD
    X =  433.428  mm,    Y =   -16.295  mm,    Z =   -471.685  mm,
    W =  -186.846 deg,    P =   0.000 deg,    R =   0.000 deg
=======
    X =  390.167  mm,    Y =   -34.837  mm,    Z =   -251.780  mm,
    W =  -180.000 deg,    P =   0.000 deg,    R =   0.000 deg
>>>>>>> 57c9ae60f3459af8128fdcb2050aaf603a61aea9
};
P[196]{
   GP1:
    UF : 0, UT : 6,      CONFIG : 'N U T, 0, 0, 0',
<<<<<<< HEAD
    X =  434.375  mm,    Y =   -16.580  mm,    Z =   -487.019  mm,
    W =  -186.869 deg,    P =   0.000 deg,    R =   0.000 deg
=======
    X =  390.021  mm,    Y =   -29.837  mm,    Z =   -251.456  mm,
    W =  -180.000 deg,    P =   0.000 deg,    R =   0.000 deg
>>>>>>> 57c9ae60f3459af8128fdcb2050aaf603a61aea9
};
P[197]{
   GP1:
    UF : 0, UT : 6,      CONFIG : 'N U T, 0, 0, 0',
<<<<<<< HEAD
    X =  435.516  mm,    Y =   -16.243  mm,    Z =   -502.334  mm,
    W =  -186.326 deg,    P =   0.000 deg,    R =   0.000 deg
=======
    X =  389.932  mm,    Y =   -25.287  mm,    Z =   -248.925  mm,
    W =  -180.000 deg,    P =   0.000 deg,    R =   0.000 deg
>>>>>>> 57c9ae60f3459af8128fdcb2050aaf603a61aea9
};
P[198]{
   GP1:
    UF : 0, UT : 6,      CONFIG : 'N U T, 0, 0, 0',
<<<<<<< HEAD
    X =  436.411  mm,    Y =   -16.764  mm,    Z =   -516.562  mm,
    W =  -185.908 deg,    P =   0.000 deg,    R =   0.000 deg
=======
    X =  390.953  mm,    Y =   -19.292  mm,    Z =   -244.231  mm,
    W =  -180.000 deg,    P =   0.000 deg,    R =   0.000 deg
>>>>>>> 57c9ae60f3459af8128fdcb2050aaf603a61aea9
};
P[199]{
   GP1:
    UF : 0, UT : 6,      CONFIG : 'N U T, 0, 0, 0',
<<<<<<< HEAD
    X =  437.716  mm,    Y =   -17.206  mm,    Z =   -530.429  mm,
    W =  -185.816 deg,    P =   0.000 deg,    R =   0.000 deg
=======
    X =  389.990  mm,    Y =   -14.798  mm,    Z =   -242.392  mm,
    W =  -180.000 deg,    P =   0.000 deg,    R =   0.000 deg
>>>>>>> 57c9ae60f3459af8128fdcb2050aaf603a61aea9
};
P[200]{
   GP1:
    UF : 0, UT : 6,      CONFIG : 'N U T, 0, 0, 0',
<<<<<<< HEAD
    X =  439.125  mm,    Y =   -17.353  mm,    Z =   -544.285  mm,
    W =  -185.748 deg,    P =   0.000 deg,    R =   0.000 deg
=======
    X =  389.984  mm,    Y =   -9.573  mm,    Z =   -241.670  mm,
    W =  -180.000 deg,    P =   0.000 deg,    R =   0.000 deg
>>>>>>> 57c9ae60f3459af8128fdcb2050aaf603a61aea9
};
P[201]{
   GP1:
    UF : 0, UT : 6,      CONFIG : 'N U T, 0, 0, 0',
<<<<<<< HEAD
    X =  440.512  mm,    Y =   -17.058  mm,    Z =   -559.385  mm,
    W =  -185.350 deg,    P =   0.000 deg,    R =   0.000 deg
=======
    X =  390.250  mm,    Y =   -4.864  mm,    Z =   -241.578  mm,
    W =  -180.000 deg,    P =   0.000 deg,    R =   0.000 deg
>>>>>>> 57c9ae60f3459af8128fdcb2050aaf603a61aea9
};
P[202]{
   GP1:
    UF : 0, UT : 6,      CONFIG : 'N U T, 0, 0, 0',
<<<<<<< HEAD
    X =  441.246  mm,    Y =   -17.669  mm,    Z =   -573.894  mm,
    W =  -184.886 deg,    P =   0.000 deg,    R =   0.000 deg
=======
    X =  389.997  mm,    Y =   0.212  mm,    Z =   -241.505  mm,
    W =  -180.000 deg,    P =   0.000 deg,    R =   0.000 deg
>>>>>>> 57c9ae60f3459af8128fdcb2050aaf603a61aea9
};
P[203]{
   GP1:
    UF : 0, UT : 6,      CONFIG : 'N U T, 0, 0, 0',
<<<<<<< HEAD
    X =  421.065  mm,    Y =   -18.208  mm,    Z =   -744.371  mm,
=======
    X =  389.854  mm,    Y =   5.427  mm,    Z =   -242.311  mm,
>>>>>>> 57c9ae60f3459af8128fdcb2050aaf603a61aea9
    W =  -180.000 deg,    P =   0.000 deg,    R =   0.000 deg
};
P[204]{
   GP1:
    UF : 0, UT : 6,      CONFIG : 'N U T, 0, 0, 0',
<<<<<<< HEAD
    X =  447.535  mm,    Y =   -33.868  mm,    Z =   -734.066  mm,
=======
    X =  389.968  mm,    Y =   10.388  mm,    Z =   -244.533  mm,
>>>>>>> 57c9ae60f3459af8128fdcb2050aaf603a61aea9
    W =  -180.000 deg,    P =   0.000 deg,    R =   0.000 deg
};
P[205]{
   GP1:
    UF : 0, UT : 6,      CONFIG : 'N U T, 0, 0, 0',
<<<<<<< HEAD
    X =  431.786  mm,    Y =   -31.454  mm,    Z =   -501.312  mm,
    W =  -185.844 deg,    P =   0.000 deg,    R =   0.000 deg
=======
    X =  389.919  mm,    Y =   15.301  mm,    Z =   -246.317  mm,
    W =  -180.000 deg,    P =   0.000 deg,    R =   0.000 deg
>>>>>>> 57c9ae60f3459af8128fdcb2050aaf603a61aea9
};
P[206]{
   GP1:
    UF : 0, UT : 6,      CONFIG : 'N U T, 0, 0, 0',
<<<<<<< HEAD
    X =  430.511  mm,    Y =   -31.255  mm,    Z =   -485.784  mm,
    W =  -185.917 deg,    P =   0.000 deg,    R =   0.000 deg
=======
    X =  389.808  mm,    Y =   20.220  mm,    Z =   -246.518  mm,
    W =  -180.000 deg,    P =   0.000 deg,    R =   0.000 deg
>>>>>>> 57c9ae60f3459af8128fdcb2050aaf603a61aea9
};
P[207]{
   GP1:
    UF : 0, UT : 6,      CONFIG : 'N U T, 0, 0, 0',
<<<<<<< HEAD
    X =  430.051  mm,    Y =   -30.793  mm,    Z =   -471.856  mm,
    W =  -186.549 deg,    P =   0.000 deg,    R =   0.000 deg
=======
    X =  389.910  mm,    Y =   24.987  mm,    Z =   -245.629  mm,
    W =  -180.000 deg,    P =   0.000 deg,    R =   0.000 deg
>>>>>>> 57c9ae60f3459af8128fdcb2050aaf603a61aea9
};
P[208]{
   GP1:
    UF : 0, UT : 6,      CONFIG : 'N U T, 0, 0, 0',
<<<<<<< HEAD
    X =  429.934  mm,    Y =   -30.835  mm,    Z =   -456.980  mm,
    W =  -186.891 deg,    P =   0.000 deg,    R =   0.000 deg
=======
    X =  390.082  mm,    Y =   30.383  mm,    Z =   -242.936  mm,
    W =  -180.000 deg,    P =   0.000 deg,    R =   0.000 deg
>>>>>>> 57c9ae60f3459af8128fdcb2050aaf603a61aea9
};
P[209]{
   GP1:
    UF : 0, UT : 6,      CONFIG : 'N U T, 0, 0, 0',
<<<<<<< HEAD
    X =  430.096  mm,    Y =   -30.105  mm,    Z =   -443.347  mm,
    W =  -186.947 deg,    P =   0.000 deg,    R =   0.000 deg
=======
    X =  389.950  mm,    Y =   35.422  mm,    Z =   -240.831  mm,
    W =  -180.000 deg,    P =   0.000 deg,    R =   0.000 deg
>>>>>>> 57c9ae60f3459af8128fdcb2050aaf603a61aea9
};
P[210]{
   GP1:
    UF : 0, UT : 6,      CONFIG : 'N U T, 0, 0, 0',
<<<<<<< HEAD
    X =  429.131  mm,    Y =   -30.566  mm,    Z =   -427.247  mm,
    W =  -186.849 deg,    P =   0.000 deg,    R =   0.000 deg
=======
    X =  389.769  mm,    Y =   40.177  mm,    Z =   -239.908  mm,
    W =  -180.000 deg,    P =   0.000 deg,    R =   0.000 deg
>>>>>>> 57c9ae60f3459af8128fdcb2050aaf603a61aea9
};
P[211]{
   GP1:
    UF : 0, UT : 6,      CONFIG : 'N U T, 0, 0, 0',
<<<<<<< HEAD
    X =  428.110  mm,    Y =   -30.116  mm,    Z =   -413.530  mm,
    W =  -186.823 deg,    P =   0.000 deg,    R =   0.000 deg
=======
    X =  391.180  mm,    Y =   46.645  mm,    Z =   -239.413  mm,
    W =  -180.000 deg,    P =   0.000 deg,    R =   0.000 deg
>>>>>>> 57c9ae60f3459af8128fdcb2050aaf603a61aea9
};
P[212]{
   GP1:
    UF : 0, UT : 6,      CONFIG : 'N U T, 0, 0, 0',
<<<<<<< HEAD
    X =  427.026  mm,    Y =   -29.623  mm,    Z =   -400.056  mm,
    W =  -187.066 deg,    P =   0.000 deg,    R =   0.000 deg
=======
    X =  390.011  mm,    Y =   50.329  mm,    Z =   -238.657  mm,
    W =  -180.000 deg,    P =   0.000 deg,    R =   0.000 deg
>>>>>>> 57c9ae60f3459af8128fdcb2050aaf603a61aea9
};
P[213]{
   GP1:
    UF : 0, UT : 6,      CONFIG : 'N U T, 0, 0, 0',
<<<<<<< HEAD
    X =  426.888  mm,    Y =   -28.069  mm,    Z =   -383.822  mm,
    W =  -187.428 deg,    P =   0.000 deg,    R =   0.000 deg
=======
    X =  390.174  mm,    Y =   55.401  mm,    Z =   -238.564  mm,
    W =  -180.000 deg,    P =   0.000 deg,    R =   0.000 deg
>>>>>>> 57c9ae60f3459af8128fdcb2050aaf603a61aea9
};
P[214]{
   GP1:
    UF : 0, UT : 6,      CONFIG : 'N U T, 0, 0, 0',
<<<<<<< HEAD
    X =  425.798  mm,    Y =   -30.149  mm,    Z =   -372.140  mm,
    W =  -187.528 deg,    P =   0.000 deg,    R =   0.000 deg
=======
    X =  390.048  mm,    Y =   60.212  mm,    Z =   -238.489  mm,
    W =  -180.000 deg,    P =   0.000 deg,    R =   0.000 deg
>>>>>>> 57c9ae60f3459af8128fdcb2050aaf603a61aea9
};
P[215]{
   GP1:
    UF : 0, UT : 6,      CONFIG : 'N U T, 0, 0, 0',
<<<<<<< HEAD
    X =  426.989  mm,    Y =   -28.430  mm,    Z =   -368.811  mm,
    W =  -187.586 deg,    P =   0.000 deg,    R =   0.000 deg
=======
    X =  390.927  mm,    Y =   64.940  mm,    Z =   -239.209  mm,
    W =  -180.000 deg,    P =   0.000 deg,    R =   0.000 deg
>>>>>>> 57c9ae60f3459af8128fdcb2050aaf603a61aea9
};
P[216]{
   GP1:
    UF : 0, UT : 6,      CONFIG : 'N U T, 0, 0, 0',
<<<<<<< HEAD
    X =  426.444  mm,    Y =   -29.207  mm,    Z =   -356.864  mm,
    W =  -187.811 deg,    P =   0.000 deg,    R =   0.000 deg
=======
    X =  389.922  mm,    Y =   70.208  mm,    Z =   -240.329  mm,
    W =  -180.000 deg,    P =   0.000 deg,    R =   0.000 deg
>>>>>>> 57c9ae60f3459af8128fdcb2050aaf603a61aea9
};
P[217]{
   GP1:
    UF : 0, UT : 6,      CONFIG : 'N U T, 0, 0, 0',
<<<<<<< HEAD
    X =  426.206  mm,    Y =   -28.025  mm,    Z =   -342.488  mm,
    W =  -188.240 deg,    P =   0.000 deg,    R =   0.000 deg
=======
    X =  389.927  mm,    Y =   74.947  mm,    Z =   -240.249  mm,
    W =  -180.000 deg,    P =   0.000 deg,    R =   0.000 deg
>>>>>>> 57c9ae60f3459af8128fdcb2050aaf603a61aea9
};
P[218]{
   GP1:
    UF : 0, UT : 6,      CONFIG : 'N U T, 0, 0, 0',
<<<<<<< HEAD
    X =  425.101  mm,    Y =   -28.637  mm,    Z =   -328.767  mm,
    W =  -188.267 deg,    P =   0.000 deg,    R =   0.000 deg
=======
    X =  390.643  mm,    Y =   79.645  mm,    Z =   -239.634  mm,
    W =  -180.000 deg,    P =   0.000 deg,    R =   0.000 deg
>>>>>>> 57c9ae60f3459af8128fdcb2050aaf603a61aea9
};
P[219]{
   GP1:
    UF : 0, UT : 6,      CONFIG : 'N U T, 0, 0, 0',
<<<<<<< HEAD
    X =  424.671  mm,    Y =   -28.925  mm,    Z =   -312.554  mm,
    W =  -188.359 deg,    P =   0.000 deg,    R =   0.000 deg
=======
    X =  389.895  mm,    Y =   85.385  mm,    Z =   -239.074  mm,
    W =  -180.000 deg,    P =   0.000 deg,    R =   0.000 deg
>>>>>>> 57c9ae60f3459af8128fdcb2050aaf603a61aea9
};
P[220]{
   GP1:
    UF : 0, UT : 6,      CONFIG : 'N U T, 0, 0, 0',
<<<<<<< HEAD
    X =  424.705  mm,    Y =   -28.299  mm,    Z =   -298.194  mm,
    W =  -188.488 deg,    P =   0.000 deg,    R =   0.000 deg
=======
    X =  390.207  mm,    Y =   90.222  mm,    Z =   -238.977  mm,
    W =  -180.000 deg,    P =   0.000 deg,    R =   0.000 deg
>>>>>>> 57c9ae60f3459af8128fdcb2050aaf603a61aea9
};
P[221]{
   GP1:
    UF : 0, UT : 6,      CONFIG : 'N U T, 0, 0, 0',
<<<<<<< HEAD
    X =  424.464  mm,    Y =   -28.467  mm,    Z =   -284.091  mm,
    W =  -188.530 deg,    P =   0.000 deg,    R =   0.000 deg
=======
    X =  390.112  mm,    Y =   95.179  mm,    Z =   -239.399  mm,
    W =  -180.000 deg,    P =   0.000 deg,    R =   0.000 deg
>>>>>>> 57c9ae60f3459af8128fdcb2050aaf603a61aea9
};
P[222]{
   GP1:
    UF : 0, UT : 6,      CONFIG : 'N U T, 0, 0, 0',
<<<<<<< HEAD
    X =  424.461  mm,    Y =   -27.704  mm,    Z =   -271.501  mm,
    W =  -188.603 deg,    P =   0.000 deg,    R =   0.000 deg
=======
    X =  390.040  mm,    Y =   100.249  mm,    Z =   -240.185  mm,
    W =  -180.000 deg,    P =   0.000 deg,    R =   0.000 deg
>>>>>>> 57c9ae60f3459af8128fdcb2050aaf603a61aea9
};
P[223]{
   GP1:
    UF : 0, UT : 6,      CONFIG : 'N U T, 0, 0, 0',
<<<<<<< HEAD
    X =  423.928  mm,    Y =   -26.985  mm,    Z =   -257.033  mm,
    W =  -188.735 deg,    P =   0.000 deg,    R =   0.000 deg
=======
    X =  389.959  mm,    Y =   185.420  mm,    Z =   -240.185  mm,
    W =  -180.000 deg,    P =   0.000 deg,    R =   0.000 deg
>>>>>>> 57c9ae60f3459af8128fdcb2050aaf603a61aea9
};
P[224]{
   GP1:
    UF : 0, UT : 6,      CONFIG : 'N U T, 0, 0, 0',
<<<<<<< HEAD
    X =  423.248  mm,    Y =   -28.701  mm,    Z =   -240.089  mm,
    W =  -188.994 deg,    P =   0.000 deg,    R =   0.000 deg
=======
    X =  374.939  mm,    Y =   185.420  mm,    Z =   -240.122  mm,
    W =  -180.000 deg,    P =   0.000 deg,    R =   0.000 deg
>>>>>>> 57c9ae60f3459af8128fdcb2050aaf603a61aea9
};
P[225]{
   GP1:
    UF : 0, UT : 6,      CONFIG : 'N U T, 0, 0, 0',
<<<<<<< HEAD
    X =  422.958  mm,    Y =   -26.503  mm,    Z =   -241.931  mm,
    W =  -188.967 deg,    P =   0.000 deg,    R =   0.000 deg
=======
    X =  375.367  mm,    Y =   65.544  mm,    Z =   -240.122  mm,
    W =  -180.000 deg,    P =   0.000 deg,    R =   0.000 deg
>>>>>>> 57c9ae60f3459af8128fdcb2050aaf603a61aea9
};
P[226]{
   GP1:
    UF : 0, UT : 6,      CONFIG : 'N U T, 0, 0, 0',
<<<<<<< HEAD
    X =  421.906  mm,    Y =   -26.188  mm,    Z =   -227.002  mm,
    W =  -189.091 deg,    P =   0.000 deg,    R =   0.000 deg
=======
    X =  376.033  mm,    Y =   61.237  mm,    Z =   -239.661  mm,
    W =  -180.000 deg,    P =   0.000 deg,    R =   0.000 deg
>>>>>>> 57c9ae60f3459af8128fdcb2050aaf603a61aea9
};
P[227]{
   GP1:
    UF : 0, UT : 6,      CONFIG : 'N U T, 0, 0, 0',
<<<<<<< HEAD
    X =  422.008  mm,    Y =   -28.429  mm,    Z =   -223.914  mm,
